; generated by PrusaSlicer 2.2.0+win64 on 2020-05-10 at 15:47:33 UTC

; 

; external perimeters extrusion width = 0.45mm
; perimeters extrusion width = 0.45mm
; infill extrusion width = 0.45mm
; solid infill extrusion width = 0.45mm
; top infill extrusion width = 0.40mm
; first layer extrusion width = 0.42mm

M73 P0 R63
M73 Q0 S63
M201 X1000 Y1000 Z1000 E5000 ; sets maximum accelerations, mm/sec^2
M203 X200 Y200 Z12 E120 ; sets maximum feedrates, mm/sec
M204 P1250 R1250 T1250 ; sets acceleration (P, T) and retract acceleration (R), mm/sec^2
M205 X8.00 Y8.00 Z0.40 E4.50 ; sets the jerk limits, mm/sec
M205 S0 T0 ; sets the minimum extruding and travel feed rate, mm/sec
M107
M862.3 P "MK3" ; printer model check
M862.1 P0.4 ; nozzle diameter check
M115 U3.8.1 ; tell printer latest fw version
G90 ; use absolute coordinates
M83 ; extruder relative mode
M104 S230 ; set extruder temp
M140 S85 ; set bed temp
M190 S85 ; wait for bed temp
M109 S230 ; wait for extruder temp
G28 W ; home all without mesh bed level
G80 ; mesh bed leveling
G1 Y-3.0 F1000.0 ; go outside print area
G92 E0.0
G1 X60.0 E9.0 F1000.0 ; intro line
M73 Q0 S63
M73 P0 R63
G1 X100.0 E12.5 F1000.0 ; intro line
G92 E0.0
M221 S95
G21 ; set units to millimeters
G90 ; use absolute coordinates
M83 ; use relative distances for extrusion
M900 K45 ; Filament gcode
;BEFORE_LAYER_CHANGE
G92 E0.0
;0.2


G1 E-1.40000 F2100.00000
G1 Z0.200 F10800.000
;AFTER_LAYER_CHANGE
;0.2
G1 Z0.400
G1 X122.092 Y116.892
G1 Z0.200
G1 E1.40000 F2100.00000
M204 S1000
G1 F1200.000
G1 X123.083 Y115.960 E0.04265
G1 X124.274 Y115.057 E0.04686
G1 X125.544 Y114.294 E0.04648
G1 X126.897 Y113.668 E0.04673
G1 X128.314 Y113.190 E0.04686
G1 X129.761 Y112.871 E0.04648
G1 X131.247 Y112.708 E0.04686
G1 X132.610 Y112.703 E0.04275
G1 X134.387 Y112.897 E0.05606
G1 X135.727 Y113.197 E0.04304
G1 X137.240 Y113.720 E0.05019
G1 X138.483 Y114.300 E0.04301
G1 X139.763 Y115.071 E0.04686
G1 X140.946 Y115.971 E0.04661
G1 X142.028 Y116.997 E0.04673
G1 X142.996 Y118.136 E0.04686
G1 X143.828 Y119.362 E0.04648
G1 X144.530 Y120.682 E0.04686
G1 X145.042 Y121.954 E0.04301
G1 X145.517 Y123.669 E0.05580
G1 X145.733 Y125.025 E0.04304
G1 X145.808 Y126.624 E0.05019
G1 X145.729 Y127.993 E0.04301
G1 X145.486 Y129.468 E0.04686
G1 X145.088 Y130.900 E0.04661
G1 X144.536 Y132.285 E0.04673
G1 X143.836 Y133.605 E0.04686
G1 X143.005 Y134.833 E0.04648
G1 X142.039 Y135.973 E0.04686
G1 X141.046 Y136.920 E0.04301
G1 X139.628 Y137.996 E0.05580
G1 X138.449 Y138.698 E0.04304
G1 X136.992 Y139.360 E0.05019
G1 X135.690 Y139.794 E0.04301
G1 X134.230 Y140.114 E0.04686
G1 X132.757 Y140.273 E0.04648
G1 X131.274 Y140.274 E0.04648
G1 X129.788 Y140.114 E0.04686
G1 X128.444 Y139.823 E0.04314
G1 X126.762 Y139.254 E0.05567
G1 X125.529 Y138.679 E0.04265
G1 X124.249 Y137.907 E0.04686
G1 X123.070 Y137.009 E0.04648
G1 X121.979 Y135.975 E0.04712
G1 X121.020 Y134.845 E0.04648
G1 X120.185 Y133.615 E0.04661
G1 X119.486 Y132.299 E0.04673
G1 X118.972 Y131.023 E0.04314
G1 X118.533 Y129.483 E0.05019
G1 X118.305 Y128.131 E0.04301
G1 X118.208 Y126.357 E0.05570
G1 X118.286 Y124.987 E0.04301
G1 X118.528 Y123.521 E0.04661
G1 X118.924 Y122.092 E0.04648
G1 X119.432 Y120.805 E0.04339
G1 X120.167 Y119.396 E0.04981
G1 X120.934 Y118.255 E0.04314
G1 X122.053 Y116.938 E0.05418
G1 X122.339 Y117.181 F10800.000
G1 F1200.000
G1 X123.322 Y116.252 E0.04241
G1 X124.483 Y115.371 E0.04570
G1 X125.720 Y114.628 E0.04522
G1 X127.039 Y114.017 E0.04558
G1 X128.417 Y113.553 E0.04558
G1 X129.825 Y113.243 E0.04522
G1 X131.270 Y113.084 E0.04558
G1 X132.610 Y113.080 E0.04200
G1 X134.306 Y113.265 E0.05351
G1 X135.619 Y113.559 E0.04217
G1 X137.087 Y114.064 E0.04868
G1 X138.304 Y114.632 E0.04212
G1 X139.549 Y115.382 E0.04558
G1 X140.700 Y116.258 E0.04534
G1 X141.756 Y117.258 E0.04558
G1 X142.695 Y118.363 E0.04546
G1 X143.507 Y119.559 E0.04534
G1 X144.189 Y120.843 E0.04558
G1 X144.691 Y122.093 E0.04224
G1 X145.145 Y123.730 E0.05327
G1 X145.358 Y125.058 E0.04217
G1 X145.431 Y126.605 E0.04856
G1 X145.355 Y127.950 E0.04224
G1 X145.119 Y129.385 E0.04558
G1 X144.731 Y130.778 E0.04534
G1 X144.193 Y132.129 E0.04558
G1 X143.514 Y133.410 E0.04546
G1 X142.703 Y134.607 E0.04534
G1 X141.763 Y135.716 E0.04558
G1 X140.790 Y136.643 E0.04212
G1 X139.434 Y137.673 E0.05339
G1 X138.279 Y138.362 E0.04217
G1 X136.870 Y139.003 E0.04856
G1 X135.592 Y139.430 E0.04224
G1 X134.172 Y139.741 E0.04558
G1 X132.734 Y139.897 E0.04534
G1 X131.292 Y139.898 E0.04522
G1 X129.846 Y139.742 E0.04558
G1 X128.530 Y139.456 E0.04224
G1 X126.920 Y138.912 E0.05327
G1 X125.711 Y138.349 E0.04181
G1 X124.463 Y137.596 E0.04570
G1 X123.315 Y136.723 E0.04522
G1 X122.255 Y135.718 E0.04582
G1 X121.319 Y134.615 E0.04534
G1 X120.509 Y133.421 E0.04522
G1 X119.827 Y132.138 E0.04558
G1 X119.324 Y130.888 E0.04224
G1 X118.871 Y129.250 E0.05327
G1 X118.658 Y127.922 E0.04217
G1 X118.584 Y126.375 E0.04856
G1 X118.661 Y125.030 E0.04224
G1 X118.896 Y123.603 E0.04534
G1 X119.282 Y122.210 E0.04534
G1 X119.780 Y120.950 E0.04248
G1 X120.494 Y119.584 E0.04832
G1 X121.246 Y118.466 E0.04224
G1 X122.300 Y117.226 E0.05102
G1 F8640.000
G1 X123.322 Y116.252 E-0.32611
G1 X124.483 Y115.371 E-0.33656
G1 X125.720 Y114.628 E-0.33305
G1 X127.033 Y114.020 E-0.33428
G1 E-0.07000 F2100.00000
G1 Z0.400 F10800.000
G1 X128.532 Y123.197
G1 Z0.200
G1 E1.40000 F2100.00000
G1 F1200.000
G1 X128.908 Y122.841 E0.01626
G1 X129.321 Y122.527 E0.01626
G1 X129.765 Y122.260 E0.01626
G1 X130.236 Y122.042 E0.01626
G1 X130.727 Y121.877 E0.01626
G1 X131.233 Y121.765 E0.01626
G1 X131.749 Y121.709 E0.01626
G1 X132.267 Y121.709 E0.01626
G1 X132.783 Y121.765 E0.01626
G1 X133.289 Y121.877 E0.01626
G1 X133.780 Y122.042 E0.01626
G1 X134.251 Y122.260 E0.01626
G1 X134.695 Y122.527 E0.01626
G1 X135.108 Y122.841 E0.01626
G1 X135.484 Y123.197 E0.01626
G1 X135.820 Y123.593 E0.01626
G1 X136.111 Y124.022 E0.01626
G1 X136.354 Y124.480 E0.01626
G1 X136.545 Y124.961 E0.01626
G1 X136.684 Y125.461 E0.01626
G1 X136.768 Y125.973 E0.01626
G1 X136.796 Y126.490 E0.01626
G1 X136.768 Y127.008 E0.01626
G1 X136.684 Y127.520 E0.01626
G1 X136.545 Y128.019 E0.01626
G1 X136.354 Y128.501 E0.01626
G1 X136.111 Y128.959 E0.01626
G1 X135.820 Y129.388 E0.01626
G1 X135.484 Y129.783 E0.01626
G1 X135.108 Y130.140 E0.01626
G1 X134.695 Y130.454 E0.01626
G1 X134.251 Y130.721 E0.01626
G1 X133.780 Y130.938 E0.01626
G1 X133.289 Y131.104 E0.01626
G1 X132.783 Y131.215 E0.01626
G1 X132.267 Y131.272 E0.01626
G1 X131.749 Y131.272 E0.01626
G1 X131.233 Y131.215 E0.01626
G1 X130.727 Y131.104 E0.01626
G1 X130.236 Y130.938 E0.01626
G1 X129.765 Y130.721 E0.01626
G1 X129.321 Y130.454 E0.01626
G1 X128.908 Y130.140 E0.01626
G1 X128.532 Y129.783 E0.01626
G1 X128.196 Y129.388 E0.01626
G1 X127.905 Y128.959 E0.01626
G1 X127.662 Y128.501 E0.01626
G1 X127.470 Y128.019 E0.01626
G1 X127.332 Y127.520 E0.01626
G1 X127.248 Y127.008 E0.01626
G1 X127.220 Y126.490 E0.01626
G1 X127.248 Y125.973 E0.01626
G1 X127.332 Y125.461 E0.01626
G1 X127.470 Y124.961 E0.01626
G1 X127.662 Y124.480 E0.01626
G1 X127.905 Y124.022 E0.01626
G1 X128.196 Y123.593 E0.01626
G1 X128.493 Y123.243 E0.01437
G1 X128.780 Y123.487 F10800.000
G1 F1200.000
G1 X129.152 Y123.129 E0.01621
G1 X129.533 Y122.840 E0.01497
G1 X129.942 Y122.594 E0.01497
G1 X130.375 Y122.393 E0.01497
G1 X130.828 Y122.240 E0.01497
G1 X131.294 Y122.138 E0.01497
G1 X131.769 Y122.086 E0.01497
G1 X132.247 Y122.086 E0.01497
G1 X132.721 Y122.138 E0.01497
G1 X133.188 Y122.240 E0.01497
G1 X133.640 Y122.393 E0.01497
G1 X134.074 Y122.594 E0.01497
G1 X134.483 Y122.840 E0.01497
G1 X134.863 Y123.129 E0.01497
G1 X135.210 Y123.457 E0.01497
G1 X135.519 Y123.821 E0.01497
G1 X135.787 Y124.216 E0.01497
G1 X136.011 Y124.638 E0.01497
G1 X136.188 Y125.082 E0.01497
G1 X136.315 Y125.542 E0.01497
G1 X136.393 Y126.013 E0.01497
G1 X136.418 Y126.490 E0.01497
G1 X136.393 Y126.967 E0.01497
G1 X136.315 Y127.438 E0.01497
G1 X136.188 Y127.899 E0.01497
G1 X136.011 Y128.342 E0.01497
G1 X135.787 Y128.764 E0.01497
G1 X135.519 Y129.160 E0.01497
G1 X135.210 Y129.523 E0.01497
G1 X134.863 Y129.852 E0.01497
G1 X134.483 Y130.141 E0.01497
G1 X134.074 Y130.387 E0.01497
G1 X133.640 Y130.588 E0.01497
G1 X133.188 Y130.740 E0.01497
G1 X132.721 Y130.843 E0.01497
G1 X132.247 Y130.894 E0.01497
G1 X131.769 Y130.894 E0.01497
G1 X131.294 Y130.843 E0.01497
G1 X130.828 Y130.740 E0.01497
G1 X130.375 Y130.588 E0.01497
G1 X129.942 Y130.387 E0.01497
G1 X129.533 Y130.141 E0.01497
G1 X129.153 Y129.852 E0.01497
G1 X128.806 Y129.524 E0.01497
G1 X128.497 Y129.160 E0.01497
G1 X128.229 Y128.764 E0.01497
G1 X128.005 Y128.342 E0.01497
G1 X127.828 Y127.899 E0.01497
G1 X127.700 Y127.438 E0.01497
G1 X127.623 Y126.967 E0.01497
G1 X127.597 Y126.490 E0.01497
G1 X127.623 Y126.013 E0.01497
G1 X127.700 Y125.542 E0.01497
G1 X127.828 Y125.082 E0.01497
G1 X128.005 Y124.638 E0.01497
G1 X128.229 Y124.216 E0.01497
G1 X128.497 Y123.821 E0.01497
G1 X128.741 Y123.533 E0.01185
G1 X128.664 Y123.105 F10800.000
G1 F8640.000
G1 X129.152 Y123.129 E-0.13315
G1 X129.533 Y122.840 E-0.11027
G1 X129.942 Y122.594 E-0.11027
G1 X130.375 Y122.393 E-0.11027
G1 X130.828 Y122.240 E-0.11027
G1 X131.294 Y122.138 E-0.11027
G1 X131.769 Y122.086 E-0.11027
G1 X132.247 Y122.086 E-0.11027
G1 X132.721 Y122.138 E-0.11027
G1 X133.188 Y122.240 E-0.11027
G1 X133.640 Y122.393 E-0.11027
G1 X134.010 Y122.564 E-0.09413
G1 E-0.07000 F2100.00000
G1 Z0.400 F10800.000
G1 X124.558 Y119.434
G1 Z0.200
G1 E1.40000 F2100.00000
G1 F1200.000
G1 X125.365 Y118.670 E0.03484
G1 X126.249 Y117.997 E0.03484
G1 X127.201 Y117.425 E0.03484
G1 X128.210 Y116.958 E0.03484
G1 X129.263 Y116.603 E0.03484
G1 X130.348 Y116.364 E0.03484
G1 X131.452 Y116.244 E0.03484
G1 X132.563 Y116.244 E0.03484
G1 X133.668 Y116.364 E0.03484
G1 X134.753 Y116.603 E0.03484
G1 X135.806 Y116.958 E0.03484
G1 X136.814 Y117.425 E0.03484
G1 X137.766 Y117.997 E0.03484
G1 X138.651 Y118.670 E0.03484
G1 X139.457 Y119.434 E0.03484
G1 X140.177 Y120.281 E0.03484
G1 X140.800 Y121.200 E0.03484
G1 X141.289 Y122.122 E0.03273
G1 X141.732 Y123.216 E0.03698
G1 X142.029 Y124.285 E0.03478
G1 X142.209 Y125.381 E0.03484
G1 X142.269 Y126.490 E0.03484
G1 X142.209 Y127.600 E0.03484
G1 X142.029 Y128.696 E0.03484
G1 X141.732 Y129.767 E0.03484
G1 X141.321 Y130.799 E0.03484
G1 X140.800 Y131.780 E0.03484
G1 X140.177 Y132.700 E0.03484
G1 X139.457 Y133.547 E0.03484
G1 X138.651 Y134.311 E0.03484
G1 X137.766 Y134.983 E0.03484
G1 X136.814 Y135.556 E0.03484
G1 X135.806 Y136.023 E0.03484
G1 X134.753 Y136.377 E0.03484
G1 X133.668 Y136.616 E0.03484
G1 X132.563 Y136.736 E0.03484
G1 X131.452 Y136.736 E0.03484
G1 X130.348 Y136.616 E0.03484
G1 X129.263 Y136.377 E0.03484
G1 X128.210 Y136.023 E0.03484
G1 X127.201 Y135.556 E0.03484
G1 X126.249 Y134.983 E0.03484
G1 X125.365 Y134.311 E0.03484
G1 X124.558 Y133.547 E0.03484
G1 X123.839 Y132.700 E0.03484
G1 X123.216 Y131.780 E0.03484
G1 X122.727 Y130.858 E0.03273
G1 X122.283 Y129.765 E0.03698
G1 X121.987 Y128.696 E0.03478
G1 X121.807 Y127.600 E0.03484
G1 X121.747 Y126.490 E0.03484
G1 X121.807 Y125.381 E0.03484
G1 X121.987 Y124.285 E0.03484
G1 X122.284 Y123.214 E0.03484
G1 X122.695 Y122.182 E0.03484
G1 X123.216 Y121.200 E0.03484
G1 X123.839 Y120.281 E0.03484
G1 X124.520 Y119.480 E0.03295
G1 X124.232 Y119.235 F10800.000
G1 F1200.000
G1 X125.121 Y118.382 E0.03863
G1 X126.038 Y117.685 E0.03612
G1 X127.025 Y117.091 E0.03612
G1 X128.070 Y116.607 E0.03612
G1 X129.162 Y116.239 E0.03612
G1 X130.287 Y115.992 E0.03612
G1 X131.432 Y115.867 E0.03612
G1 X132.584 Y115.867 E0.03612
G1 X133.729 Y115.992 E0.03612
G1 X134.854 Y116.239 E0.03612
G1 X135.946 Y116.607 E0.03612
G1 X136.991 Y117.091 E0.03612
G1 X137.978 Y117.685 E0.03612
G1 X138.895 Y118.382 E0.03612
G1 X139.732 Y119.174 E0.03612
G1 X140.477 Y120.052 E0.03612
G1 X141.124 Y121.006 E0.03612
G1 X141.631 Y121.963 E0.03398
G1 X142.090 Y123.094 E0.03827
G1 X142.398 Y124.203 E0.03610
G1 X142.584 Y125.340 E0.03612
G1 X142.647 Y126.490 E0.03612
G1 X142.584 Y127.641 E0.03612
G1 X142.398 Y128.777 E0.03612
G1 X142.090 Y129.887 E0.03612
G1 X141.663 Y130.957 E0.03612
G1 X141.124 Y131.975 E0.03612
G1 X140.477 Y132.929 E0.03612
G1 X139.732 Y133.807 E0.03612
G1 X138.895 Y134.599 E0.03612
G1 X137.978 Y135.296 E0.03612
G1 X136.991 Y135.890 E0.03612
G1 X135.946 Y136.373 E0.03612
G1 X134.854 Y136.741 E0.03612
G1 X133.729 Y136.989 E0.03612
G1 X132.584 Y137.113 E0.03612
G1 X131.432 Y137.113 E0.03612
G1 X130.287 Y136.989 E0.03612
G1 X129.162 Y136.741 E0.03612
G1 X128.070 Y136.373 E0.03612
G1 X127.025 Y135.890 E0.03612
G1 X126.038 Y135.296 E0.03612
G1 X125.121 Y134.599 E0.03612
G1 X124.284 Y133.807 E0.03612
G1 X123.538 Y132.929 E0.03612
G1 X122.892 Y131.975 E0.03612
G1 X122.384 Y131.018 E0.03398
G1 X121.926 Y129.887 E0.03827
G1 X121.618 Y128.777 E0.03610
G1 X121.432 Y127.641 E0.03612
G1 X121.369 Y126.490 E0.03612
G1 X121.432 Y125.340 E0.03612
G1 X121.618 Y124.203 E0.03612
G1 X121.926 Y123.093 E0.03612
G1 X122.352 Y122.023 E0.03612
G1 X122.892 Y121.006 E0.03612
G1 X123.538 Y120.052 E0.03612
G1 X124.193 Y119.281 E0.03171
G1 X124.622 Y119.326 F10800.000
G1 F8640.000
G1 X125.121 Y118.382 E-0.29824
G1 X126.038 Y117.685 E-0.26598
G1 X127.025 Y117.091 E-0.26598
G1 X128.070 Y116.607 E-0.26599
G1 X129.030 Y116.284 E-0.23380
G1 E-0.07000 F2100.00000
G1 Z0.400 F10800.000
G1 X134.084 Y122.058
G1 Z0.200
G1 E1.40000 F2100.00000
G1 F1200.000
G1 X129.012 Y116.986 E0.22873
G1 X128.606 Y117.123 E0.01365
G1 X133.009 Y121.525 E0.19854
G1 X132.828 Y121.486 E0.00590
G1 X132.378 Y121.437 E0.01445
G1 X128.210 Y117.269 E0.18794
G1 X127.840 Y117.441 E0.01303
G1 X131.825 Y121.426 E0.17973
G1 X131.327 Y121.471 E0.01595
G1 X127.469 Y117.612 E0.17399
G1 X127.119 Y117.805 E0.01274
G1 X130.870 Y121.556 E0.16917
G1 X130.445 Y121.673 E0.01405
G1 X126.780 Y118.008 E0.16528
G1 X126.441 Y118.212 E0.01260
G1 X130.047 Y121.818 E0.16261
G1 X129.676 Y121.989 E0.01303
G1 X126.130 Y118.443 E0.15992
G1 X125.822 Y118.678 E0.01234
G1 X129.334 Y122.189 E0.15837
G1 X129.010 Y122.408 E0.01246
G1 X125.517 Y118.915 E0.15752
G1 X125.239 Y119.179 E0.01223
G1 X128.704 Y122.644 E0.15629
G1 X128.426 Y122.908 E0.01223
G1 X124.960 Y119.443 E0.15629
G1 X124.690 Y119.715 E0.01223
G1 X128.166 Y123.191 E0.15675
G1 X127.923 Y123.491 E0.01230
G1 X124.441 Y120.009 E0.15704
G1 X124.192 Y120.302 E0.01227
G1 X127.704 Y123.814 E0.15839
G1 X127.510 Y124.162 E0.01272
G1 X123.958 Y120.610 E0.16022
G1 X123.739 Y120.933 E0.01245
G1 X127.337 Y124.531 E0.16229
G1 X127.187 Y124.924 E0.01340
G1 X123.519 Y121.256 E0.16541
G1 X123.323 Y121.602 E0.01268
G1 X127.069 Y125.348 E0.16896
G1 X126.988 Y125.809 E0.01493
G1 X123.135 Y121.956 E0.17376
G1 X122.948 Y122.312 E0.01281
G1 X126.946 Y126.310 E0.18031
G1 X126.936 Y126.490 E0.00576
G1 X126.957 Y126.863 E0.01189
G1 X122.793 Y122.699 E0.18775
G1 X122.639 Y123.087 E0.01331
G1 X127.040 Y127.488 E0.19848
G1 X127.202 Y128.110 E0.02048
G1 X127.257 Y128.248 E0.00474
G1 X122.500 Y123.491 E0.21450
G1 X122.383 Y123.916 E0.01405
G1 X134.590 Y136.124 E0.55054
G1 X134.146 Y136.221 E0.01451
G1 X122.265 Y124.340 E0.53581
G1 X122.188 Y124.806 E0.01504
G1 X133.701 Y136.319 E0.51923
G1 X133.220 Y136.380 E0.01547
G1 X122.111 Y125.272 E0.50098
G1 X122.069 Y125.772 E0.01600
G1 X132.731 Y136.434 E0.48083
G1 X132.548 Y136.454 E0.00587
G1 X132.209 Y136.454 E0.01083
G1 X122.041 Y126.286 E0.45853
G1 X122.030 Y126.490 E0.00652
G1 X122.049 Y126.836 E0.01104
G1 X131.666 Y136.454 E0.43372
G1 X131.468 Y136.454 E0.00633
G1 X131.082 Y136.412 E0.01237
G1 X122.080 Y127.410 E0.40597
G1 X122.088 Y127.569 E0.00510
G1 X122.165 Y128.037 E0.01513
G1 X130.473 Y136.345 E0.37467
G1 X129.789 Y136.204 E0.02228
G1 X122.280 Y128.694 E0.33867
G1 X122.488 Y129.445 E0.02485
G1 X129.051 Y136.008 E0.29596
G1 X128.214 Y135.713 E0.02830
G1 X122.809 Y130.308 E0.24375
G1 X122.983 Y130.738 E0.01482
G1 X123.306 Y131.348 E0.02199
G1 X127.159 Y135.201 E0.17375
G1 X126.408 Y134.749 E0.02793
G1 X125.548 Y134.095 E0.03445
G1 X124.845 Y133.428 E0.03091
G1 X123.680 Y132.264 E0.05252
G1 F8640.000
G1 X124.845 Y133.428 E-0.38029
G1 X125.548 Y134.095 E-0.22383
G1 X126.408 Y134.749 E-0.24946
G1 X127.159 Y135.201 E-0.20227
G1 X126.319 Y134.361 E-0.27416
G1 E-0.07000 F2100.00000
G1 Z0.400 F10800.000
G1 X129.932 Y130.923
G1 Z0.200
G1 E1.40000 F2100.00000
G1 F1200.000
G1 X135.004 Y135.994 E0.22873
G1 X135.409 Y135.858 E0.01365
G1 X131.007 Y131.455 E0.19855
G1 X131.187 Y131.495 E0.00590
G1 X131.638 Y131.544 E0.01445
G1 X135.805 Y135.711 E0.18794
G1 X136.176 Y135.540 E0.01303
G1 X132.191 Y131.554 E0.17973
G1 X132.689 Y131.510 E0.01595
G1 X136.547 Y135.368 E0.17399
G1 X136.897 Y135.176 E0.01274
G1 X133.146 Y131.425 E0.16917
G1 X133.571 Y131.307 E0.01405
G1 X137.236 Y134.972 E0.16528
G1 X137.574 Y134.769 E0.01260
G1 X133.969 Y131.163 E0.16261
G1 X134.339 Y130.991 E0.01303
G1 X137.885 Y134.537 E0.15992
G1 X138.194 Y134.303 E0.01234
G1 X134.682 Y130.791 E0.15837
G1 X135.005 Y130.573 E0.01246
G1 X138.498 Y134.066 E0.15752
G1 X138.777 Y133.802 E0.01223
G1 X135.311 Y130.336 E0.15629
G1 X135.590 Y130.072 E0.01223
G1 X139.055 Y133.538 E0.15629
G1 X139.325 Y133.265 E0.01223
G1 X135.850 Y129.790 E0.15675
G1 X136.092 Y129.490 E0.01230
G1 X139.574 Y132.972 E0.15704
G1 X139.824 Y132.679 E0.01227
G1 X136.311 Y129.167 E0.15839
G1 X136.505 Y128.818 E0.01272
G1 X140.058 Y132.371 E0.16022
G1 X140.277 Y132.048 E0.01245
G1 X136.679 Y128.449 E0.16229
G1 X136.828 Y128.057 E0.01340
G1 X140.496 Y131.725 E0.16541
G1 X140.693 Y131.379 E0.01268
G1 X136.946 Y127.632 E0.16896
G1 X137.028 Y127.171 E0.01493
G1 X140.881 Y131.024 E0.17376
G1 X141.068 Y130.669 E0.01281
G1 X137.070 Y126.671 E0.18031
G1 X137.079 Y126.490 E0.00576
G1 X137.059 Y126.118 E0.01189
G1 X141.222 Y130.281 E0.18775
G1 X141.377 Y129.893 E0.01331
G1 X136.976 Y125.492 E0.19847
G1 X136.814 Y124.871 E0.02048
G1 X136.759 Y124.733 E0.00474
G1 X141.515 Y129.489 E0.21450
G1 X141.633 Y129.065 E0.01405
G1 X129.425 Y116.857 E0.55054
G1 X129.870 Y116.759 E0.01451
G1 X141.751 Y128.640 E0.53581
G1 X141.828 Y128.175 E0.01504
G1 X130.314 Y116.661 E0.51923
G1 X130.795 Y116.600 E0.01547
G1 X141.904 Y127.709 E0.50098
G1 X141.947 Y127.209 E0.01600
G1 X131.285 Y116.547 E0.48083
G1 X131.468 Y116.527 E0.00587
G1 X131.807 Y116.527 E0.01082
G1 X141.975 Y126.695 E0.45853
G1 X141.986 Y126.490 E0.00653
G1 X141.967 Y126.145 E0.01104
G1 X132.349 Y116.527 E0.43373
G1 X132.548 Y116.527 E0.00633
G1 X132.934 Y116.569 E0.01237
G1 X141.936 Y125.571 E0.40597
G1 X141.927 Y125.412 E0.00510
G1 X141.850 Y124.943 E0.01513
G1 X133.542 Y116.635 E0.37468
G1 X134.226 Y116.777 E0.02228
G1 X141.736 Y124.287 E0.33867
G1 X141.528 Y123.536 E0.02485
G1 X134.965 Y116.973 E0.29597
G1 X135.802 Y117.268 E0.02830
G1 X141.207 Y122.673 E0.24376
G1 X141.032 Y122.242 E0.01482
G1 X140.710 Y121.633 E0.02199
G1 X136.857 Y117.780 E0.17376
G1 X137.607 Y118.232 E0.02794
G1 X138.467 Y118.886 E0.03445
G1 X139.170 Y119.551 E0.03085
G1 X140.336 Y120.717 E0.05259
;BEFORE_LAYER_CHANGE
G92 E0.0
;0.4


G1 F8640.000
G1 X139.170 Y119.551 E-0.38077
G1 X138.467 Y118.886 E-0.22340
G1 X137.607 Y118.232 E-0.24946
G1 X136.857 Y117.780 E-0.20231
G1 X137.696 Y118.619 E-0.27405
G1 E-0.07000 F2100.00000
G1 Z0.400 F10800.000
;AFTER_LAYER_CHANGE
;0.4
M104 S240 ; set temperature
M140 S90 ; set bed temperature
G1 Z0.600
G1 X139.763 Y115.071
G1 Z0.400
G1 E1.40000 F2100.00000
G1 F3000.000
G1 X140.946 Y115.971 E0.04661
G1 X142.028 Y116.997 E0.04673
G1 X142.996 Y118.136 E0.04686
G1 X143.828 Y119.362 E0.04648
G1 X144.530 Y120.682 E0.04686
G1 X145.042 Y121.954 E0.04301
G1 X145.517 Y123.669 E0.05580
G1 X145.733 Y125.025 E0.04304
G1 X145.808 Y126.624 E0.05019
G1 X145.729 Y127.993 E0.04301
G1 X145.486 Y129.468 E0.04686
G1 X145.088 Y130.900 E0.04661
G1 X144.536 Y132.285 E0.04673
G1 X143.836 Y133.605 E0.04686
G1 X143.005 Y134.833 E0.04648
G1 X142.039 Y135.973 E0.04686
G1 X141.046 Y136.920 E0.04301
G1 X139.628 Y137.996 E0.05580
G1 X138.449 Y138.698 E0.04304
G1 X136.992 Y139.360 E0.05019
G1 X135.690 Y139.794 E0.04301
G1 X134.230 Y140.114 E0.04686
G1 X132.757 Y140.273 E0.04648
G1 X131.274 Y140.274 E0.04648
G1 X129.788 Y140.114 E0.04686
G1 X128.444 Y139.823 E0.04314
G1 X126.762 Y139.254 E0.05567
G1 X125.529 Y138.679 E0.04265
G1 X124.249 Y137.907 E0.04686
G1 X123.070 Y137.009 E0.04648
G1 X121.979 Y135.975 E0.04712
G1 X121.020 Y134.845 E0.04648
G1 X120.185 Y133.615 E0.04661
G1 X119.486 Y132.299 E0.04673
G1 X118.972 Y131.023 E0.04314
G1 X118.533 Y129.483 E0.05019
G1 X118.305 Y128.131 E0.04301
G1 X118.208 Y126.357 E0.05570
G1 X118.286 Y124.987 E0.04301
G1 X118.528 Y123.521 E0.04661
G1 X118.924 Y122.092 E0.04648
G1 X119.432 Y120.805 E0.04339
G1 X120.167 Y119.396 E0.04981
G1 X120.934 Y118.255 E0.04314
G1 X122.092 Y116.892 E0.05606
G1 X123.083 Y115.960 E0.04265
G1 X124.274 Y115.057 E0.04686
G1 X125.544 Y114.294 E0.04648
G1 X126.897 Y113.668 E0.04673
G1 X128.314 Y113.190 E0.04686
G1 X129.761 Y112.871 E0.04648
G1 X131.247 Y112.708 E0.04686
G1 X132.610 Y112.703 E0.04275
G1 X134.387 Y112.897 E0.05606
G1 X135.727 Y113.197 E0.04304
G1 X137.240 Y113.720 E0.05019
G1 X138.483 Y114.300 E0.04301
G1 X139.712 Y115.040 E0.04498
G1 X139.517 Y115.363 F10800.000
G1 F3000.000
G1 X140.700 Y116.258 E0.04651
G1 X141.756 Y117.258 E0.04558
G1 X142.695 Y118.363 E0.04546
G1 X143.507 Y119.559 E0.04534
G1 X144.189 Y120.843 E0.04558
G1 X144.691 Y122.093 E0.04224
G1 X145.145 Y123.730 E0.05327
G1 X145.358 Y125.058 E0.04217
G1 X145.431 Y126.605 E0.04856
G1 X145.355 Y127.950 E0.04224
G1 X145.119 Y129.385 E0.04558
G1 X144.731 Y130.778 E0.04534
G1 X144.193 Y132.129 E0.04558
G1 X143.514 Y133.410 E0.04546
G1 X142.703 Y134.607 E0.04534
G1 X141.763 Y135.716 E0.04558
G1 X140.790 Y136.643 E0.04212
M73 Q1 S62
G1 X139.434 Y137.673 E0.05339
G1 X138.279 Y138.362 E0.04217
G1 X136.870 Y139.003 E0.04856
G1 X135.592 Y139.430 E0.04224
G1 X134.172 Y139.741 E0.04558
G1 X132.734 Y139.897 E0.04534
G1 X131.292 Y139.898 E0.04522
G1 X129.846 Y139.742 E0.04558
G1 X128.530 Y139.456 E0.04224
G1 X126.920 Y138.912 E0.05327
G1 X125.711 Y138.349 E0.04181
G1 X124.463 Y137.596 E0.04570
G1 X123.315 Y136.723 E0.04522
G1 X122.255 Y135.718 E0.04582
G1 X121.319 Y134.615 E0.04534
G1 X120.509 Y133.421 E0.04522
G1 X119.827 Y132.138 E0.04558
G1 X119.324 Y130.888 E0.04224
G1 X118.871 Y129.250 E0.05327
M73 P1 R62
G1 X118.658 Y127.922 E0.04217
G1 X118.584 Y126.375 E0.04856
G1 X118.661 Y125.030 E0.04224
G1 X118.896 Y123.603 E0.04534
G1 X119.282 Y122.210 E0.04534
G1 X119.780 Y120.950 E0.04248
G1 X120.494 Y119.584 E0.04832
G1 X121.246 Y118.466 E0.04224
G1 X122.351 Y117.166 E0.05351
G1 X123.322 Y116.252 E0.04181
G1 X124.483 Y115.371 E0.04570
G1 X125.720 Y114.628 E0.04522
G1 X127.039 Y114.017 E0.04558
G1 X128.417 Y113.553 E0.04558
G1 X129.825 Y113.243 E0.04522
G1 X131.270 Y113.084 E0.04558
G1 X132.610 Y113.080 E0.04200
G1 X134.306 Y113.265 E0.05351
G1 X135.619 Y113.559 E0.04217
G1 X137.087 Y114.064 E0.04868
G1 X138.304 Y114.632 E0.04212
G1 X139.466 Y115.332 E0.04253
G1 F8640.000
G1 X140.700 Y116.258 E-0.35631
G1 X141.756 Y117.258 E-0.33568
G1 X142.695 Y118.363 E-0.33480
G1 X143.432 Y119.449 E-0.30320
G1 E-0.07000 F2100.00000
G1 Z0.600 F10800.000
G1 X134.608 Y122.656
G1 Z0.400
G1 E1.40000 F2100.00000
M204 S800
G1 F1500.000
G1 X135.007 Y122.959 E0.01698
G1 X135.371 Y123.304 E0.01698
G1 X135.696 Y123.687 E0.01698
G1 X135.978 Y124.102 E0.01698
G1 X136.213 Y124.545 E0.01698
G1 X136.398 Y125.011 E0.01698
G1 X136.533 Y125.494 E0.01698
G1 X136.614 Y125.989 E0.01698
G1 X136.640 Y126.483 E0.01673
G1 X136.614 Y126.991 E0.01721
G1 X136.533 Y127.486 E0.01700
G1 X136.398 Y127.970 E0.01698
G1 X136.213 Y128.436 E0.01698
G1 X135.978 Y128.879 E0.01698
G1 X135.696 Y129.294 E0.01698
G1 X135.371 Y129.676 E0.01698
G1 X135.007 Y130.021 E0.01698
G1 X134.608 Y130.325 E0.01698
G1 X134.178 Y130.584 E0.01698
G1 X133.729 Y130.791 E0.01673
G1 X133.248 Y130.954 E0.01721
G1 X132.757 Y131.062 E0.01700
G1 X132.259 Y131.117 E0.01698
G1 X131.757 Y131.117 E0.01698
G1 X131.258 Y131.062 E0.01698
G1 X130.768 Y130.954 E0.01698
G1 X130.300 Y130.797 E0.01673
G1 X129.838 Y130.584 E0.01721
G1 X129.408 Y130.325 E0.01700
G1 X129.009 Y130.021 E0.01698
G1 X128.644 Y129.676 E0.01698
G1 X128.320 Y129.294 E0.01698
G1 X128.038 Y128.879 E0.01698
G1 X127.803 Y128.436 E0.01698
G1 X127.617 Y127.970 E0.01698
G1 X127.483 Y127.486 E0.01698
G1 X127.402 Y126.991 E0.01698
G1 X127.375 Y126.498 E0.01673
G1 X127.402 Y125.990 E0.01721
G1 X127.483 Y125.494 E0.01700
G1 X127.617 Y125.011 E0.01698
G1 X127.803 Y124.545 E0.01698
G1 X128.038 Y124.102 E0.01698
G1 X128.320 Y123.687 E0.01698
G1 X128.644 Y123.304 E0.01698
G1 X129.009 Y122.959 E0.01698
G1 X129.408 Y122.656 E0.01698
G1 X129.838 Y122.397 E0.01698
G1 X130.286 Y122.189 E0.01673
G1 X130.768 Y122.026 E0.01721
G1 X131.258 Y121.918 E0.01700
G1 X131.757 Y121.864 E0.01698
G1 X132.259 Y121.864 E0.01698
G1 X132.757 Y121.918 E0.01698
G1 X133.247 Y122.026 E0.01698
G1 X133.716 Y122.184 E0.01673
G1 X134.178 Y122.397 E0.01721
G1 X134.556 Y122.625 E0.01497
M204 S1000
G1 X134.347 Y122.974 F10800.000
M204 S800
G1 F1500.000
G1 X134.743 Y123.270 E0.01676
G1 X135.075 Y123.585 E0.01549
G1 X135.372 Y123.933 E0.01549
G1 X135.628 Y124.312 E0.01549
G1 X135.843 Y124.716 E0.01549
G1 X136.012 Y125.141 E0.01549
G1 X136.134 Y125.582 E0.01549
G1 X136.208 Y126.033 E0.01549
G1 X136.233 Y126.483 E0.01525
G1 X136.208 Y126.947 E0.01572
G1 X136.134 Y127.399 E0.01549
G1 X136.012 Y127.839 E0.01549
G1 X135.843 Y128.265 E0.01549
G1 X135.628 Y128.669 E0.01549
G1 X135.372 Y129.047 E0.01549
G1 X135.075 Y129.396 E0.01549
G1 X134.743 Y129.711 E0.01549
G1 X134.379 Y129.988 E0.01549
G1 X133.987 Y130.223 E0.01549
G1 X133.578 Y130.413 E0.01525
G1 X133.138 Y130.562 E0.01572
G1 X132.691 Y130.660 E0.01549
G1 X132.237 Y130.709 E0.01549
G1 X131.779 Y130.709 E0.01549
G1 X131.324 Y130.660 E0.01549
G1 X130.877 Y130.562 E0.01549
G1 X130.451 Y130.418 E0.01525
G1 X130.029 Y130.224 E0.01572
G1 X129.637 Y129.988 E0.01549
G1 X129.272 Y129.711 E0.01549
G1 X128.940 Y129.396 E0.01549
G1 X128.644 Y129.047 E0.01549
G1 X128.387 Y128.669 E0.01549
G1 X128.173 Y128.265 E0.01549
G1 X128.004 Y127.839 E0.01549
G1 X127.881 Y127.399 E0.01549
G1 X127.807 Y126.947 E0.01549
G1 X127.783 Y126.497 E0.01525
G1 X127.807 Y126.034 E0.01572
G1 X127.881 Y125.582 E0.01549
G1 X128.004 Y125.141 E0.01549
G1 X128.173 Y124.716 E0.01549
G1 X128.387 Y124.312 E0.01549
G1 X128.644 Y123.933 E0.01549
G1 X128.940 Y123.585 E0.01549
G1 X129.272 Y123.270 E0.01549
G1 X129.637 Y122.993 E0.01549
G1 X130.029 Y122.757 E0.01549
G1 X130.438 Y122.568 E0.01525
G1 X130.877 Y122.419 E0.01572
G1 X131.324 Y122.321 E0.01549
G1 X131.779 Y122.271 E0.01549
G1 X132.237 Y122.271 E0.01549
G1 X132.691 Y122.321 E0.01549
G1 X133.138 Y122.419 E0.01549
G1 X133.565 Y122.563 E0.01525
G1 X133.987 Y122.757 E0.01572
G1 X134.295 Y122.943 E0.01218
M204 S1000
G1 X134.705 Y122.797 F10800.000
G1 F8640.000
G1 X134.743 Y123.270 E-0.12814
G1 X135.075 Y123.585 E-0.10564
G1 X135.372 Y123.933 E-0.10564
G1 X135.628 Y124.312 E-0.10564
G1 X135.843 Y124.716 E-0.10564
G1 X136.012 Y125.141 E-0.10564
G1 X136.134 Y125.582 E-0.10564
G1 X136.208 Y126.033 E-0.10564
G1 X136.233 Y126.483 E-0.10402
G1 X136.208 Y126.947 E-0.10721
G1 X136.134 Y127.399 E-0.10568
G1 X136.012 Y127.839 E-0.10564
G1 X135.948 Y128.000 E-0.03982
G1 E-0.07000 F2100.00000
G1 Z0.600 F10800.000
G1 X137.853 Y117.869
G1 Z0.400
G1 E1.40000 F2100.00000
M204 S800
G1 F2700.000
G1 X138.751 Y118.551 E0.03818
G1 X139.570 Y119.327 E0.03818
G1 X140.300 Y120.187 E0.03818
G1 X140.933 Y121.120 E0.03818
G1 X141.461 Y122.117 E0.03818
G1 X141.879 Y123.164 E0.03818
G1 X142.181 Y124.251 E0.03818
G1 X142.363 Y125.364 E0.03818
G1 X142.424 Y126.490 E0.03818
G1 X142.363 Y127.617 E0.03818
G1 X142.181 Y128.730 E0.03818
G1 X141.879 Y129.816 E0.03818
G1 X141.461 Y130.864 E0.03818
G1 X140.933 Y131.860 E0.03818
G1 X140.300 Y132.794 E0.03818
G1 X139.570 Y133.654 E0.03818
G1 X138.751 Y134.429 E0.03818
G1 X137.853 Y135.112 E0.03818
G1 X136.887 Y135.693 E0.03818
G1 X135.863 Y136.167 E0.03818
G1 X134.795 Y136.527 E0.03818
G1 X133.693 Y136.769 E0.03818
G1 X132.572 Y136.891 E0.03818
G1 X131.444 Y136.891 E0.03818
G1 X130.323 Y136.769 E0.03818
G1 X129.221 Y136.527 E0.03818
G1 X128.152 Y136.167 E0.03818
G1 X127.129 Y135.693 E0.03818
G1 X126.162 Y135.112 E0.03818
G1 X125.264 Y134.429 E0.03818
G1 X124.446 Y133.654 E0.03818
G1 X123.716 Y132.794 E0.03818
G1 X123.083 Y131.860 E0.03818
G1 X122.554 Y130.864 E0.03818
G1 X122.137 Y129.816 E0.03818
G1 X121.835 Y128.730 E0.03818
G1 X121.653 Y127.617 E0.03818
G1 X121.592 Y126.490 E0.03818
G1 X121.653 Y125.364 E0.03818
G1 X121.835 Y124.251 E0.03818
G1 X122.137 Y123.164 E0.03818
G1 X122.554 Y122.117 E0.03818
G1 X123.083 Y121.120 E0.03818
G1 X123.716 Y120.187 E0.03818
G1 X124.446 Y119.327 E0.03818
G1 X125.264 Y118.551 E0.03818
G1 X126.162 Y117.869 E0.03818
G1 X127.129 Y117.287 E0.03818
G1 X128.152 Y116.814 E0.03818
G1 X129.221 Y116.454 E0.03818
G1 X130.323 Y116.211 E0.03818
G1 X131.444 Y116.089 E0.03818
G1 X132.572 Y116.089 E0.03818
G1 X133.693 Y116.211 E0.03818
G1 X134.795 Y116.454 E0.03818
G1 X135.863 Y116.814 E0.03818
G1 X136.887 Y117.287 E0.03818
G1 X137.802 Y117.838 E0.03615
M204 S1000
G1 X138.012 Y117.489 F10800.000
M204 S800
G1 F1500.000
G1 X139.015 Y118.241 E0.04243
G1 X139.866 Y119.047 E0.03967
G1 X140.625 Y119.940 E0.03967
G1 X141.282 Y120.910 E0.03967
G1 X141.831 Y121.945 E0.03967
G1 X142.265 Y123.034 E0.03967
G1 X142.579 Y124.163 E0.03967
G1 X142.768 Y125.320 E0.03967
G1 X142.832 Y126.490 E0.03967
G1 X142.768 Y127.661 E0.03967
G1 X142.579 Y128.817 E0.03967
G1 X142.265 Y129.946 E0.03967
G1 X141.831 Y131.035 E0.03967
G1 X141.282 Y132.071 E0.03967
G1 X140.625 Y133.041 E0.03967
G1 X139.866 Y133.934 E0.03967
G1 X139.015 Y134.740 E0.03967
G1 X138.082 Y135.449 E0.03967
G1 X137.078 Y136.053 E0.03967
G1 X136.014 Y136.546 E0.03967
G1 X134.904 Y136.920 E0.03967
G1 X133.759 Y137.172 E0.03967
G1 X132.594 Y137.298 E0.03967
G1 X131.422 Y137.298 E0.03967
G1 X130.257 Y137.172 E0.03967
G1 X129.112 Y136.920 E0.03967
G1 X128.001 Y136.546 E0.03967
G1 X126.938 Y136.053 E0.03967
G1 X125.934 Y135.449 E0.03967
G1 X125.001 Y134.740 E0.03967
G1 X124.150 Y133.934 E0.03967
G1 X123.391 Y133.041 E0.03967
G1 X122.733 Y132.071 E0.03967
G1 X122.184 Y131.035 E0.03967
G1 X121.750 Y129.946 E0.03967
G1 X121.437 Y128.817 E0.03967
G1 X121.247 Y127.661 E0.03967
G1 X121.184 Y126.490 E0.03967
G1 X121.247 Y125.320 E0.03967
G1 X121.437 Y124.163 E0.03967
G1 X121.750 Y123.034 E0.03967
G1 X122.184 Y121.945 E0.03967
G1 X122.733 Y120.910 E0.03967
G1 X123.391 Y119.940 E0.03967
G1 X124.150 Y119.047 E0.03967
G1 X125.001 Y118.241 E0.03967
G1 X125.934 Y117.531 E0.03967
G1 X126.938 Y116.927 E0.03967
G1 X128.001 Y116.435 E0.03967
G1 X129.112 Y116.061 E0.03967
G1 X130.257 Y115.809 E0.03967
G1 X131.422 Y115.682 E0.03967
G1 X132.594 Y115.682 E0.03967
G1 X133.759 Y115.809 E0.03967
G1 X134.904 Y116.061 E0.03967
G1 X136.014 Y116.435 E0.03967
G1 X137.078 Y116.927 E0.03967
G1 X137.960 Y117.458 E0.03486
M204 S1000
G1 X137.985 Y117.888 F10800.000
G1 F8640.000
G1 X139.015 Y118.241 E-0.30325
G1 X139.866 Y119.047 E-0.27062
G1 X140.625 Y119.940 E-0.27062
G1 X141.282 Y120.910 E-0.27062
G1 X141.718 Y121.732 E-0.21490
G1 E-0.07000 F2100.00000
G1 Z0.600 F10800.000
G1 X123.529 Y120.679
G1 Z0.400
G1 E1.40000 F2100.00000
G1 F4125
G1 X124.733 Y119.476 E0.05837
G1 X125.462 Y118.784 E0.03448
G1 X126.334 Y118.122 E0.03754
G1 X127.177 Y117.615 E0.03374
G1 X123.154 Y121.638 E0.19512
G1 X122.832 Y122.245 E0.02356
G1 X122.634 Y122.741 E0.01829
G1 X128.283 Y117.092 E0.27394
G1 X129.163 Y116.796 E0.03183
G1 X122.323 Y123.635 E0.33170
G1 X122.116 Y124.426 E0.02802
G1 X129.931 Y116.610 E0.37904
G1 X130.372 Y116.513 E0.01548
G1 X130.641 Y116.484 E0.00927
G1 X122.002 Y125.123 E0.41899
G1 X121.957 Y125.397 E0.00952
G1 X121.936 Y125.772 E0.01286
G1 X131.295 Y116.413 E0.45389
G1 X131.460 Y116.395 E0.00570
G1 X131.897 Y116.395 E0.01495
G1 X121.903 Y126.388 E0.48467
G1 X121.922 Y126.952 E0.01934
G1 X132.480 Y116.395 E0.51201
G1 X133.013 Y116.444 E0.01837
G1 X121.952 Y127.505 E0.53643
G1 X122.027 Y128.014 E0.01762
G1 X133.539 Y116.502 E0.55831
G1 X134.027 Y116.597 E0.01704
G1 X121.950 Y128.674 E0.58571
G1 F8640.000
G1 X126.023 Y124.601 E-1.33000
G1 E-0.07000 F2100.00000
G1 Z0.600 F10800.000
G1 X128.912 Y136.294
G1 Z0.400
G1 E1.40000 F2100.00000
G1 F4125
G1 X134.398 Y130.808 E0.26607
G1 X133.843 Y131.075 E0.02113
G1 X133.396 Y131.227 E0.01619
G1 X128.620 Y136.002 E0.23161
G1 X128.191 Y135.848 E0.01564
G1 X132.659 Y131.380 E0.21669
G1 X132.275 Y131.422 E0.01324
G1 X132.034 Y131.422 E0.00827
G1 X127.792 Y135.664 E0.20572
G1 X127.393 Y135.479 E0.01507
G1 X131.479 Y131.393 E0.19815
G1 X131.209 Y131.364 E0.00932
G1 X130.976 Y131.313 E0.00816
G1 X127.019 Y135.271 E0.19194
G1 X126.654 Y135.052 E0.01457
G1 X130.515 Y131.191 E0.18722
G1 X130.088 Y131.035 E0.01559
G1 X126.294 Y134.829 E0.18398
G1 X125.963 Y134.577 E0.01427
G1 X129.689 Y130.850 E0.18071
G1 X129.325 Y130.631 E0.01457
G1 X125.632 Y134.325 E0.17912
G1 X125.316 Y134.057 E0.01419
G1 X128.986 Y130.387 E0.17798
G1 X128.669 Y130.121 E0.01419
G1 X125.016 Y133.774 E0.17716
G1 X124.717 Y133.490 E0.01415
G1 X128.375 Y129.831 E0.17743
G1 X128.107 Y129.516 E0.01419
G1 X124.444 Y133.180 E0.17768
G1 X124.176 Y132.864 E0.01419
G1 X127.868 Y129.172 E0.17906
G1 X127.653 Y128.804 E0.01462
G1 X123.914 Y132.543 E0.18132
G1 X123.678 Y132.195 E0.01440
G1 X127.464 Y128.410 E0.18359
G1 X127.305 Y127.985 E0.01554
G1 X123.443 Y131.848 E0.18731
G1 X123.227 Y131.480 E0.01461
G1 X127.180 Y127.527 E0.19175
G1 X127.098 Y127.025 E0.01741
G1 X123.025 Y131.099 E0.19757
G1 X122.824 Y130.716 E0.01482
G1 X127.071 Y126.469 E0.20596
G1 X127.117 Y125.840 E0.02164
G1 X122.658 Y130.299 E0.21626
G1 X122.492 Y129.882 E0.01540
G1 X127.277 Y125.097 E0.23205
G1 X127.328 Y124.913 E0.00655
G1 X127.526 Y124.417 E0.01834
G1 X127.696 Y124.094 E0.01251
G1 X122.350 Y129.441 E0.25931
G1 X122.223 Y128.985 E0.01625
G1 X134.505 Y116.703 E0.59565
G1 X134.713 Y116.748 E0.00730
G1 X134.959 Y116.831 E0.00892
G1 X129.618 Y122.173 E0.25906
G1 X130.173 Y121.906 E0.02114
G1 X130.620 Y121.754 E0.01618
G1 X135.396 Y116.978 E0.23161
G1 X135.825 Y117.132 E0.01564
G1 X131.357 Y121.601 E0.21669
G1 X131.740 Y121.559 E0.01324
G1 X131.982 Y121.559 E0.00827
G1 X136.224 Y117.317 E0.20572
G1 X136.622 Y117.501 E0.01507
G1 X132.537 Y121.587 E0.19815
G1 X132.807 Y121.617 E0.00933
G1 X133.039 Y121.668 E0.00816
G1 X136.997 Y117.710 E0.19195
G1 X137.361 Y117.929 E0.01457
G1 X133.501 Y121.789 E0.18722
G1 X133.928 Y121.946 E0.01559
G1 X137.721 Y118.152 E0.18398
G1 X138.053 Y118.404 E0.01427
G1 X134.327 Y122.130 E0.18071
G1 X134.691 Y122.349 E0.01457
G1 X138.384 Y118.656 E0.17912
G1 X138.700 Y118.923 E0.01419
G1 X135.030 Y122.593 E0.17798
G1 X135.346 Y122.860 E0.01419
G1 X138.999 Y119.207 E0.17716
G1 X139.299 Y119.491 E0.01415
G1 X135.640 Y123.149 E0.17743
G1 X135.908 Y123.465 E0.01419
G1 X139.572 Y119.801 E0.17768
G1 X139.840 Y120.116 E0.01419
G1 X136.148 Y123.809 E0.17906
G1 X136.363 Y124.177 E0.01462
G1 X140.102 Y120.438 E0.18132
G1 X140.337 Y120.785 E0.01440
G1 X136.552 Y124.571 E0.18359
G1 X136.711 Y124.995 E0.01554
G1 X140.573 Y121.133 E0.18731
G1 X140.789 Y121.500 E0.01461
G1 X136.835 Y125.454 E0.19175
G1 X136.917 Y125.955 E0.01741
G1 X140.991 Y121.881 E0.19756
G1 X141.192 Y122.264 E0.01482
G1 X136.945 Y126.511 E0.20596
G1 X136.899 Y127.140 E0.02164
G1 X141.358 Y122.681 E0.21626
G1 X141.524 Y123.098 E0.01540
G1 X136.739 Y127.883 E0.23205
G1 X136.688 Y128.067 E0.00656
G1 X136.490 Y128.564 E0.01834
G1 X136.319 Y128.886 E0.01250
G1 X141.666 Y123.539 E0.25931
G1 X141.793 Y123.996 E0.01625
G1 X129.511 Y136.278 E0.59566
G1 X129.989 Y136.383 E0.01679
G1 X141.906 Y124.466 E0.57798
G1 X141.989 Y124.967 E0.01741
G1 X130.476 Y136.479 E0.55832
G1 X131.002 Y136.536 E0.01815
G1 X142.063 Y125.475 E0.53643
G1 X142.093 Y126.028 E0.01900
G1 X131.536 Y136.586 E0.51202
G1 X132.119 Y136.586 E0.02000
G1 X142.113 Y126.592 E0.48468
G1 X142.079 Y127.209 E0.02118
G1 X132.720 Y136.568 E0.45390
G1 X133.375 Y136.497 E0.02257
G1 X142.014 Y127.857 E0.41900
G1 X141.900 Y128.555 E0.02424
G1 X134.084 Y136.371 E0.37904
G1 X134.713 Y136.232 E0.02207
G1 X134.853 Y136.185 E0.00508
G1 X141.693 Y129.345 E0.33171
G1 X141.589 Y129.719 E0.01329
G1 X141.381 Y130.240 E0.01924
G1 X135.733 Y135.889 E0.27395
G1 X136.839 Y135.366 E0.04195
G1 X140.862 Y131.342 E0.19514
G1 X140.671 Y131.703 E0.01399
G1 X140.057 Y132.609 E0.03754
G1 X139.368 Y133.420 E0.03649
G1 X137.766 Y135.022 E0.07769
;BEFORE_LAYER_CHANGE
G92 E0.0
;0.6


G1 F8640.000
G1 X139.368 Y133.420 E-0.52308
G1 X140.057 Y132.609 E-0.24567
G1 X140.671 Y131.703 E-0.25278
G1 X140.862 Y131.342 E-0.09422
G1 X140.206 Y131.998 E-0.21425
G1 E-0.07000 F2100.00000
G1 Z0.600 F10800.000
;AFTER_LAYER_CHANGE
;0.6
G1 Z0.800
G1 X143.836 Y133.605
G1 Z0.600
G1 E1.40000 F2100.00000
G1 F3000.000
G1 X143.005 Y134.833 E0.04648
G1 X142.039 Y135.973 E0.04686
G1 X141.046 Y136.920 E0.04301
G1 X139.628 Y137.996 E0.05580
G1 X138.449 Y138.698 E0.04304
G1 X136.992 Y139.360 E0.05019
G1 X135.690 Y139.794 E0.04301
G1 X134.230 Y140.114 E0.04686
G1 X132.757 Y140.273 E0.04648
G1 X131.274 Y140.274 E0.04648
G1 X129.788 Y140.114 E0.04686
G1 X128.444 Y139.823 E0.04314
G1 X126.762 Y139.254 E0.05567
G1 X125.529 Y138.679 E0.04265
G1 X124.249 Y137.907 E0.04686
G1 X123.070 Y137.009 E0.04648
G1 X121.979 Y135.975 E0.04712
G1 X121.020 Y134.845 E0.04648
G1 X120.185 Y133.615 E0.04661
G1 X119.486 Y132.299 E0.04673
G1 X118.972 Y131.023 E0.04314
G1 X118.533 Y129.483 E0.05019
G1 X118.305 Y128.131 E0.04301
G1 X118.208 Y126.357 E0.05570
G1 X118.286 Y124.987 E0.04301
G1 X118.528 Y123.521 E0.04661
G1 X118.924 Y122.092 E0.04648
G1 X119.432 Y120.805 E0.04339
G1 X120.167 Y119.396 E0.04981
G1 X120.934 Y118.255 E0.04314
G1 X122.092 Y116.892 E0.05606
G1 X123.083 Y115.960 E0.04265
G1 X124.274 Y115.057 E0.04686
G1 X125.544 Y114.294 E0.04648
G1 X126.897 Y113.668 E0.04673
G1 X128.314 Y113.190 E0.04686
G1 X129.761 Y112.871 E0.04648
G1 X131.247 Y112.708 E0.04686
G1 X132.610 Y112.703 E0.04275
G1 X134.387 Y112.897 E0.05606
G1 X135.727 Y113.197 E0.04304
G1 X137.240 Y113.720 E0.05019
G1 X138.483 Y114.300 E0.04301
G1 X139.763 Y115.071 E0.04686
G1 X140.946 Y115.971 E0.04661
G1 X142.028 Y116.997 E0.04673
G1 X142.996 Y118.136 E0.04686
G1 X143.828 Y119.362 E0.04648
G1 X144.530 Y120.682 E0.04686
G1 X145.042 Y121.954 E0.04301
G1 X145.517 Y123.669 E0.05580
G1 X145.733 Y125.025 E0.04304
G1 X145.808 Y126.624 E0.05019
G1 X145.729 Y127.993 E0.04301
G1 X145.486 Y129.468 E0.04686
G1 X145.088 Y130.900 E0.04661
G1 X144.536 Y132.285 E0.04673
G1 X143.864 Y133.552 E0.04498
G1 X143.532 Y133.376 F10800.000
G1 F3000.000
G1 X142.703 Y134.607 E0.04653
G1 X141.763 Y135.716 E0.04558
G1 X140.790 Y136.643 E0.04212
G1 X139.434 Y137.673 E0.05339
G1 X138.279 Y138.362 E0.04217
G1 X136.870 Y139.003 E0.04856
G1 X135.592 Y139.430 E0.04224
G1 X134.172 Y139.741 E0.04558
G1 X132.734 Y139.897 E0.04534
G1 X131.292 Y139.898 E0.04522
G1 X129.846 Y139.742 E0.04558
G1 X128.530 Y139.456 E0.04224
G1 X126.920 Y138.912 E0.05327
G1 X125.711 Y138.349 E0.04181
G1 X124.463 Y137.596 E0.04570
G1 X123.315 Y136.723 E0.04522
G1 X122.255 Y135.718 E0.04582
G1 X121.319 Y134.615 E0.04534
G1 X120.509 Y133.421 E0.04522
G1 X119.827 Y132.138 E0.04558
G1 X119.324 Y130.888 E0.04224
G1 X118.871 Y129.250 E0.05327
G1 X118.658 Y127.922 E0.04217
G1 X118.584 Y126.375 E0.04856
G1 X118.661 Y125.030 E0.04224
G1 X118.896 Y123.603 E0.04534
G1 X119.282 Y122.210 E0.04534
G1 X119.780 Y120.950 E0.04248
G1 X120.494 Y119.584 E0.04832
G1 X121.246 Y118.466 E0.04224
G1 X122.351 Y117.166 E0.05351
G1 X123.322 Y116.252 E0.04181
G1 X124.483 Y115.371 E0.04570
G1 X125.720 Y114.628 E0.04522
G1 X127.039 Y114.017 E0.04558
G1 X128.417 Y113.553 E0.04558
G1 X129.825 Y113.243 E0.04522
G1 X131.270 Y113.084 E0.04558
G1 X132.610 Y113.080 E0.04200
G1 X134.306 Y113.265 E0.05351
G1 X135.619 Y113.559 E0.04217
G1 X137.087 Y114.064 E0.04868
G1 X138.304 Y114.632 E0.04212
G1 X139.549 Y115.382 E0.04558
G1 X140.700 Y116.258 E0.04534
G1 X141.756 Y117.258 E0.04558
G1 X142.695 Y118.363 E0.04546
G1 X143.507 Y119.559 E0.04534
G1 X144.189 Y120.843 E0.04558
G1 X144.691 Y122.093 E0.04224
G1 X145.145 Y123.730 E0.05327
G1 X145.358 Y125.058 E0.04217
G1 X145.431 Y126.605 E0.04856
G1 X145.355 Y127.950 E0.04224
G1 X145.119 Y129.385 E0.04558
G1 X144.731 Y130.778 E0.04534
G1 X144.193 Y132.129 E0.04558
G1 X143.560 Y133.323 E0.04239
G1 F8640.000
G1 X142.703 Y134.607 E-0.35645
G1 X141.763 Y135.716 E-0.33568
G1 X140.790 Y136.643 E-0.31019
G1 X139.660 Y137.501 E-0.32768
G1 E-0.07000 F2100.00000
G1 Z0.800 F10800.000
G1 X135.978 Y128.879
G1 Z0.600
G1 E1.40000 F2100.00000
M204 S800
G1 F1500.000
G1 X135.696 Y129.294 E0.01698
G1 X135.371 Y129.676 E0.01698
G1 X135.007 Y130.021 E0.01698
G1 X134.608 Y130.325 E0.01698
G1 X134.178 Y130.584 E0.01698
G1 X133.723 Y130.794 E0.01698
G1 X133.247 Y130.954 E0.01698
G1 X132.757 Y131.062 E0.01698
G1 X132.259 Y131.117 E0.01698
G1 X131.757 Y131.117 E0.01698
G1 X131.258 Y131.062 E0.01698
G1 X130.768 Y130.954 E0.01698
G1 X130.293 Y130.794 E0.01698
G1 X129.838 Y130.584 E0.01698
G1 X129.408 Y130.325 E0.01698
G1 X129.009 Y130.021 E0.01698
G1 X128.644 Y129.676 E0.01698
G1 X128.327 Y129.303 E0.01656
G1 X128.038 Y128.880 E0.01736
G1 X127.803 Y128.436 E0.01701
G1 X127.617 Y127.970 E0.01698
G1 X127.483 Y127.486 E0.01698
G1 X127.402 Y126.991 E0.01698
G1 X127.375 Y126.490 E0.01698
G1 X127.402 Y125.989 E0.01698
G1 X127.483 Y125.494 E0.01698
G1 X127.617 Y125.011 E0.01698
G1 X127.803 Y124.545 E0.01698
G1 X128.038 Y124.102 E0.01698
G1 X128.320 Y123.687 E0.01698
G1 X128.636 Y123.314 E0.01656
G1 X129.008 Y122.960 E0.01736
G1 X129.408 Y122.656 E0.01701
G1 X129.838 Y122.397 E0.01698
G1 X130.293 Y122.186 E0.01698
G1 X130.768 Y122.026 E0.01698
G1 X131.258 Y121.918 E0.01698
G1 X131.757 Y121.864 E0.01698
G1 X132.259 Y121.864 E0.01698
G1 X132.757 Y121.918 E0.01698
G1 X133.247 Y122.026 E0.01698
G1 X133.723 Y122.186 E0.01698
G1 X134.178 Y122.397 E0.01698
G1 X134.608 Y122.656 E0.01698
G1 X135.007 Y122.959 E0.01698
G1 X135.371 Y123.304 E0.01698
G1 X135.696 Y123.687 E0.01698
G1 X135.978 Y124.102 E0.01698
G1 X136.213 Y124.545 E0.01698
G1 X136.398 Y125.011 E0.01698
G1 X136.533 Y125.494 E0.01698
G1 X136.614 Y125.989 E0.01698
G1 X136.641 Y126.490 E0.01698
G1 X136.614 Y126.991 E0.01698
G1 X136.533 Y127.486 E0.01698
G1 X136.398 Y127.970 E0.01698
G1 X136.213 Y128.436 E0.01698
G1 X136.006 Y128.826 E0.01495
M204 S1000
G1 X135.646 Y128.635 F10800.000
M204 S800
G1 F1500.000
G1 X135.372 Y129.047 E0.01676
G1 X135.075 Y129.396 E0.01549
G1 X134.743 Y129.711 E0.01549
G1 X134.379 Y129.988 E0.01549
G1 X133.987 Y130.223 E0.01549
G1 X133.572 Y130.416 E0.01549
G1 X133.138 Y130.562 E0.01549
G1 X132.691 Y130.660 E0.01549
G1 X132.237 Y130.709 E0.01549
G1 X131.779 Y130.709 E0.01549
G1 X131.324 Y130.660 E0.01549
G1 X130.877 Y130.562 E0.01549
G1 X130.444 Y130.416 E0.01549
G1 X130.029 Y130.223 E0.01549
G1 X129.637 Y129.988 E0.01549
G1 X129.272 Y129.711 E0.01549
G1 X128.940 Y129.396 E0.01549
G1 X128.652 Y129.056 E0.01509
G1 X128.387 Y128.669 E0.01587
G1 X128.173 Y128.265 E0.01550
G1 X128.004 Y127.839 E0.01549
G1 X127.881 Y127.399 E0.01549
G1 X127.807 Y126.947 E0.01549
G1 X127.783 Y126.490 E0.01549
G1 X127.807 Y126.033 E0.01549
G1 X127.881 Y125.582 E0.01549
G1 X128.004 Y125.141 E0.01549
G1 X128.173 Y124.716 E0.01549
G1 X128.387 Y124.312 E0.01549
G1 X128.644 Y123.933 E0.01549
G1 X128.933 Y123.593 E0.01509
G1 X129.272 Y123.270 E0.01587
G1 X129.637 Y122.993 E0.01550
G1 X130.029 Y122.757 E0.01549
G1 X130.444 Y122.565 E0.01549
G1 X130.877 Y122.419 E0.01549
G1 X131.324 Y122.321 E0.01549
G1 X131.779 Y122.271 E0.01549
G1 X132.237 Y122.271 E0.01549
G1 X132.691 Y122.321 E0.01549
G1 X133.138 Y122.419 E0.01549
G1 X133.572 Y122.565 E0.01549
G1 X133.987 Y122.757 E0.01549
G1 X134.379 Y122.993 E0.01549
G1 X134.743 Y123.270 E0.01549
G1 X135.075 Y123.585 E0.01549
G1 X135.372 Y123.933 E0.01549
G1 X135.628 Y124.312 E0.01549
G1 X135.843 Y124.716 E0.01549
G1 X136.012 Y125.141 E0.01549
G1 X136.134 Y125.582 E0.01549
G1 X136.208 Y126.033 E0.01549
G1 X136.233 Y126.490 E0.01549
G1 X136.208 Y126.947 E0.01549
G1 X136.134 Y127.399 E0.01549
G1 X136.012 Y127.839 E0.01549
G1 X135.843 Y128.265 E0.01549
G1 X135.674 Y128.582 E0.01217
M204 S1000
G1 X135.842 Y128.984 F10800.000
G1 F8640.000
G1 X135.372 Y129.047 E-0.12814
G1 X135.075 Y129.396 E-0.10564
G1 X134.743 Y129.711 E-0.10564
G1 X134.379 Y129.988 E-0.10564
G1 X133.987 Y130.223 E-0.10564
G1 X133.572 Y130.416 E-0.10564
G1 X133.138 Y130.562 E-0.10564
G1 X132.691 Y130.660 E-0.10564
G1 X132.237 Y130.709 E-0.10564
G1 X131.779 Y130.709 E-0.10564
G1 X131.324 Y130.660 E-0.10564
G1 X130.877 Y130.562 E-0.10564
G1 X130.714 Y130.507 E-0.03981
G1 E-0.07000 F2100.00000
G1 Z0.800 F10800.000
G1 X140.933 Y131.860
G1 Z0.600
G1 E1.40000 F2100.00000
M204 S800
G1 F2700.000
G1 X140.300 Y132.794 E0.03818
G1 X139.570 Y133.654 E0.03818
G1 X138.751 Y134.429 E0.03818
G1 X137.853 Y135.112 E0.03818
G1 X136.887 Y135.693 E0.03818
G1 X135.863 Y136.167 E0.03818
G1 X134.795 Y136.527 E0.03818
G1 X133.693 Y136.769 E0.03818
G1 X132.572 Y136.891 E0.03818
G1 X131.444 Y136.891 E0.03818
G1 X130.323 Y136.769 E0.03818
G1 X129.221 Y136.527 E0.03818
G1 X128.152 Y136.167 E0.03818
G1 X127.129 Y135.693 E0.03818
G1 X126.162 Y135.112 E0.03818
G1 X125.264 Y134.429 E0.03818
G1 X124.446 Y133.654 E0.03818
G1 X123.716 Y132.794 E0.03818
G1 X123.083 Y131.860 E0.03818
G1 X122.725 Y131.186 E0.02584
G1 X122.554 Y130.864 E0.01234
G1 X122.137 Y129.816 E0.03818
G1 X121.835 Y128.730 E0.03818
G1 X121.653 Y127.617 E0.03818
G1 X121.592 Y126.490 E0.03818
G1 X121.653 Y125.364 E0.03818
G1 X121.835 Y124.251 E0.03818
G1 X122.137 Y123.164 E0.03818
G1 X122.554 Y122.117 E0.03818
G1 X123.083 Y121.120 E0.03818
G1 X123.716 Y120.187 E0.03818
G1 X124.446 Y119.327 E0.03818
G1 X125.264 Y118.551 E0.03818
G1 X126.162 Y117.869 E0.03818
G1 X127.129 Y117.287 E0.03818
G1 X128.152 Y116.814 E0.03818
G1 X129.221 Y116.454 E0.03818
G1 X130.323 Y116.211 E0.03818
G1 X131.444 Y116.089 E0.03818
G1 X132.572 Y116.089 E0.03818
G1 X133.693 Y116.211 E0.03818
G1 X134.795 Y116.454 E0.03818
G1 X135.863 Y116.814 E0.03818
G1 X136.887 Y117.287 E0.03818
G1 X137.853 Y117.869 E0.03818
G1 X138.751 Y118.551 E0.03818
G1 X139.570 Y119.327 E0.03818
G1 X140.300 Y120.187 E0.03818
G1 X140.933 Y121.120 E0.03818
G1 X141.461 Y122.117 E0.03818
G1 X141.879 Y123.164 E0.03818
G1 X142.181 Y124.251 E0.03818
G1 X142.363 Y125.364 E0.03818
G1 X142.424 Y126.490 E0.03818
G1 X142.363 Y127.617 E0.03818
G1 X142.181 Y128.730 E0.03818
G1 X141.879 Y129.816 E0.03818
G1 X141.461 Y130.864 E0.03818
G1 X140.961 Y131.807 E0.03615
M204 S1000
G1 X141.321 Y131.998 F10800.000
M204 S800
G1 F1500.000
G1 X140.625 Y133.041 E0.04243
G1 X139.866 Y133.934 E0.03967
G1 X139.015 Y134.740 E0.03967
G1 X138.082 Y135.449 E0.03967
G1 X137.078 Y136.053 E0.03967
G1 X136.014 Y136.546 E0.03967
G1 X134.904 Y136.920 E0.03967
G1 X133.759 Y137.172 E0.03967
G1 X132.594 Y137.298 E0.03967
G1 X131.422 Y137.298 E0.03967
G1 X130.257 Y137.172 E0.03967
G1 X129.112 Y136.920 E0.03967
G1 X128.001 Y136.546 E0.03967
G1 X126.938 Y136.053 E0.03967
G1 X125.934 Y135.449 E0.03967
G1 X125.001 Y134.740 E0.03967
G1 X124.150 Y133.934 E0.03967
G1 X123.391 Y133.041 E0.03967
G1 X122.733 Y132.071 E0.03967
G1 X122.184 Y131.035 E0.03967
G1 X121.750 Y129.946 E0.03967
G1 X121.437 Y128.817 E0.03967
G1 X121.247 Y127.661 E0.03967
G1 X121.184 Y126.490 E0.03967
G1 X121.247 Y125.320 E0.03967
G1 X121.437 Y124.163 E0.03967
G1 X121.750 Y123.034 E0.03967
G1 X122.184 Y121.945 E0.03967
G1 X122.733 Y120.910 E0.03967
G1 X123.391 Y119.940 E0.03967
G1 X124.150 Y119.047 E0.03967
G1 X125.001 Y118.241 E0.03967
G1 X125.934 Y117.531 E0.03967
G1 X126.938 Y116.927 E0.03967
G1 X128.001 Y116.435 E0.03967
G1 X129.112 Y116.061 E0.03967
G1 X130.257 Y115.809 E0.03967
G1 X131.422 Y115.682 E0.03967
G1 X132.594 Y115.682 E0.03967
G1 X133.759 Y115.809 E0.03967
G1 X134.904 Y116.061 E0.03967
G1 X136.014 Y116.435 E0.03967
G1 X137.078 Y116.927 E0.03967
G1 X138.082 Y117.531 E0.03967
G1 X139.015 Y118.241 E0.03967
G1 X139.866 Y119.047 E0.03967
G1 X140.625 Y119.940 E0.03967
G1 X141.282 Y120.910 E0.03967
G1 X141.831 Y121.945 E0.03967
G1 X142.265 Y123.034 E0.03967
G1 X142.579 Y124.163 E0.03967
G1 X142.768 Y125.320 E0.03967
G1 X142.832 Y126.490 E0.03967
G1 X142.768 Y127.661 E0.03967
G1 X142.579 Y128.817 E0.03967
G1 X142.265 Y129.946 E0.03967
G1 X141.831 Y131.035 E0.03967
G1 X141.349 Y131.945 E0.03486
M204 S1000
G1 X140.921 Y131.993 F10800.000
G1 F8640.000
G1 X140.625 Y133.041 E-0.30325
G1 X139.866 Y133.934 E-0.27062
G1 X139.015 Y134.740 E-0.27062
G1 X138.082 Y135.449 E-0.27062
G1 X137.285 Y135.929 E-0.21490
G1 E-0.07000 F2100.00000
G1 Z0.800 F10800.000
G1 X141.815 Y129.590
G1 Z0.600
G1 E1.40000 F2100.00000
G1 F4117
G1 X136.319 Y124.094 E0.26652
G1 X136.490 Y124.417 E0.01250
G1 X136.688 Y124.913 E0.01834
G1 X136.739 Y125.098 E0.00656
G1 X141.524 Y129.882 E0.23205
G1 X141.358 Y130.299 E0.01540
G1 X136.899 Y125.840 E0.21626
G1 X136.946 Y126.470 E0.02167
G1 X141.192 Y130.716 E0.20592
G1 X140.991 Y131.099 E0.01482
G1 X136.917 Y127.026 E0.19756
G1 X136.835 Y127.527 E0.01741
G1 X140.789 Y131.480 E0.19175
G1 X140.573 Y131.848 E0.01461
G1 X136.711 Y127.985 E0.18731
G1 X136.552 Y128.410 E0.01554
G1 X140.337 Y132.195 E0.18359
G1 X140.102 Y132.543 E0.01440
G1 X136.363 Y128.804 E0.18132
G1 X136.148 Y129.172 E0.01462
G1 X139.840 Y132.864 E0.17906
G1 X139.572 Y133.180 E0.01419
G1 X135.908 Y129.516 E0.17768
G1 X135.640 Y129.831 E0.01419
G1 X139.299 Y133.490 E0.17743
G1 X138.999 Y133.774 E0.01415
G1 X135.346 Y130.121 E0.17716
G1 X135.030 Y130.388 E0.01419
G1 X138.700 Y134.057 E0.17798
G1 X138.384 Y134.325 E0.01419
G1 X134.691 Y130.631 E0.17912
G1 X134.327 Y130.851 E0.01457
G1 X138.053 Y134.577 E0.18071
G1 X137.721 Y134.829 E0.01427
G1 X133.928 Y131.036 E0.18395
G1 X133.501 Y131.191 E0.01560
G1 X137.361 Y135.052 E0.18722
G1 X136.997 Y135.271 E0.01457
G1 X133.039 Y131.313 E0.19195
G1 X132.807 Y131.364 E0.00816
G1 X132.537 Y131.393 E0.00933
G1 X136.622 Y135.479 E0.19815
G1 X136.224 Y135.664 E0.01507
G1 X131.982 Y131.422 E0.20572
G1 X131.740 Y131.422 E0.00827
G1 X131.357 Y131.380 E0.01324
G1 X135.825 Y135.848 E0.21669
G1 X135.396 Y136.002 E0.01564
G1 X130.620 Y131.227 E0.23161
G1 X130.180 Y131.078 E0.01593
G1 X129.618 Y130.807 E0.02140
G1 X134.959 Y136.149 E0.25906
G1 X134.713 Y136.232 E0.00892
G1 X134.505 Y136.278 E0.00730
G1 X122.223 Y123.996 E0.59565
G1 X122.350 Y123.539 E0.01625
G1 X127.696 Y128.886 E0.25931
G1 X127.526 Y128.564 E0.01251
G1 X127.328 Y128.067 E0.01834
G1 X127.277 Y127.883 E0.00655
G1 X122.492 Y123.098 E0.23205
G1 X122.658 Y122.681 E0.01540
G1 X127.117 Y127.141 E0.21626
G1 X127.070 Y126.510 E0.02167
G1 X122.824 Y122.264 E0.20593
G1 X123.025 Y121.881 E0.01482
G1 X127.098 Y125.955 E0.19757
G1 X127.180 Y125.454 E0.01741
G1 X123.227 Y121.500 E0.19175
G1 X123.443 Y121.133 E0.01461
G1 X127.305 Y124.995 E0.18731
G1 X127.464 Y124.571 E0.01554
G1 X123.678 Y120.786 E0.18359
G1 X123.914 Y120.438 E0.01440
G1 X127.653 Y124.177 E0.18132
G1 X127.868 Y123.809 E0.01462
G1 X124.176 Y120.116 E0.17906
G1 X124.444 Y119.801 E0.01419
G1 X128.107 Y123.465 E0.17768
G1 X128.375 Y123.149 E0.01419
G1 X124.717 Y119.491 E0.17743
G1 X125.016 Y119.207 E0.01415
G1 X128.669 Y122.860 E0.17717
G1 X128.986 Y122.593 E0.01419
G1 X125.316 Y118.923 E0.17798
G1 X125.632 Y118.656 E0.01419
G1 X129.325 Y122.349 E0.17912
G1 X129.689 Y122.130 E0.01457
G1 X125.963 Y118.404 E0.18071
G1 X126.294 Y118.152 E0.01427
G1 X130.087 Y121.945 E0.18395
G1 X130.515 Y121.789 E0.01560
G1 X126.654 Y117.929 E0.18722
G1 X127.019 Y117.710 E0.01457
G1 X130.976 Y121.668 E0.19194
G1 X131.209 Y121.617 E0.00816
G1 X131.479 Y121.587 E0.00932
G1 X127.393 Y117.501 E0.19815
G1 X127.792 Y117.317 E0.01507
G1 X132.034 Y121.559 E0.20572
G1 X132.275 Y121.559 E0.00827
G1 X132.659 Y121.601 E0.01324
G1 X128.191 Y117.132 E0.21669
G1 X128.620 Y116.978 E0.01564
G1 X133.396 Y121.754 E0.23160
G1 X133.836 Y121.902 E0.01593
G1 X134.398 Y122.173 E0.02139
G1 X129.056 Y116.831 E0.25906
G1 X129.303 Y116.748 E0.00893
G1 X129.511 Y116.703 E0.00729
G1 X141.793 Y128.985 E0.59566
G1 X141.906 Y128.515 E0.01657
G1 X129.989 Y116.597 E0.57798
G1 X130.476 Y116.502 E0.01704
G1 X141.989 Y128.014 E0.55832
G1 X142.063 Y127.505 E0.01762
G1 X131.002 Y116.444 E0.53643
G1 X131.536 Y116.395 E0.01837
G1 X142.093 Y126.952 E0.51202
G1 X142.113 Y126.388 E0.01934
G1 X132.119 Y116.395 E0.48468
G1 X132.555 Y116.395 E0.01496
G1 X132.720 Y116.413 E0.00569
G1 X142.079 Y125.772 E0.45390
G1 X142.059 Y125.397 E0.01286
G1 X142.014 Y125.123 E0.00952
G1 X133.375 Y116.484 E0.41900
G1 X133.644 Y116.513 E0.00928
G1 X134.084 Y116.610 E0.01547
G1 X141.900 Y124.426 E0.37904
G1 X141.693 Y123.635 E0.02802
G1 X134.853 Y116.796 E0.33171
G1 X135.733 Y117.092 E0.03183
G1 X141.381 Y122.741 E0.27395
G1 X141.184 Y122.245 E0.01830
G1 X140.862 Y121.638 E0.02355
G1 X136.839 Y117.615 E0.19514
G1 X137.682 Y118.122 E0.03375
G1 X138.553 Y118.784 E0.03754
G1 X139.281 Y119.474 E0.03438
G1 X140.487 Y120.680 E0.05849
G1 F8640.000
G1 X139.281 Y119.474 E-0.39380
G1 X138.553 Y118.784 E-0.23147
G1 X137.682 Y118.122 E-0.25278
G1 X136.839 Y117.615 E-0.22722
G1 X137.527 Y118.303 E-0.22473
G1 E-0.07000 F2100.00000
G1 Z0.800 F10800.000
G1 X134.181 Y136.537
G1 Z0.600
G1 E1.40000 F2100.00000
G1 F4117
G1 X122.109 Y124.466 E0.58543
G1 X122.027 Y124.967 E0.01741
G1 X133.539 Y136.479 E0.55831
G1 X133.013 Y136.536 E0.01815
G1 X121.952 Y125.475 E0.53643
G1 X121.922 Y126.029 E0.01900
G1 X132.480 Y136.586 E0.51201
G1 X131.897 Y136.586 E0.02000
G1 X121.903 Y126.592 E0.48467
G1 X121.936 Y127.209 E0.02118
G1 X131.295 Y136.568 E0.45389
G1 X130.641 Y136.497 E0.02257
G1 X122.002 Y127.858 E0.41899
G1 X122.116 Y128.555 E0.02424
G1 X129.931 Y136.371 E0.37904
G1 X129.303 Y136.232 E0.02207
G1 X129.162 Y136.185 E0.00508
G1 X122.323 Y129.345 E0.33170
G1 X122.427 Y129.719 E0.01328
G1 X122.634 Y130.240 E0.01925
G1 X128.283 Y135.889 E0.27394
G1 X127.177 Y135.366 E0.04195
G1 X123.154 Y131.343 E0.19512
G1 X123.345 Y131.703 E0.01398
G1 X123.959 Y132.609 E0.03754
G1 X124.648 Y133.421 E0.03652
G1 X126.249 Y135.022 E0.07764
M106 S76.5
;BEFORE_LAYER_CHANGE
G92 E0.0
;0.8


G1 F8640.000
G1 X124.648 Y133.421 E-0.52279
G1 X123.959 Y132.609 E-0.24589
G1 X123.345 Y131.703 E-0.25278
G1 X123.154 Y131.343 E-0.09416
G1 X123.810 Y131.999 E-0.21438
G1 E-0.07000 F2100.00000
G1 Z0.800 F10800.000
;AFTER_LAYER_CHANGE
;0.8
G1 Z1.000
G1 X128.038 Y128.879
G1 Z0.800
G1 E1.40000 F2100.00000
M204 S800
G1 F1500.000
G1 X127.803 Y128.436 E0.01698
G1 X127.617 Y127.970 E0.01698
G1 X127.483 Y127.486 E0.01698
G1 X127.402 Y126.991 E0.01698
G1 X127.375 Y126.490 E0.01698
G1 X127.402 Y125.989 E0.01698
G1 X127.483 Y125.494 E0.01698
G1 X127.617 Y125.011 E0.01698
G1 X127.803 Y124.545 E0.01698
G1 X128.038 Y124.102 E0.01698
G1 X128.320 Y123.687 E0.01698
G1 X128.644 Y123.304 E0.01698
G1 X129.009 Y122.959 E0.01698
G1 X129.408 Y122.656 E0.01698
G1 X129.838 Y122.397 E0.01698
G1 X130.293 Y122.186 E0.01698
G1 X130.768 Y122.026 E0.01698
G1 X131.258 Y121.918 E0.01698
G1 X131.757 Y121.864 E0.01698
G1 X132.259 Y121.864 E0.01698
G1 X132.757 Y121.918 E0.01698
G1 X133.247 Y122.026 E0.01698
G1 X133.723 Y122.186 E0.01698
G1 X134.178 Y122.397 E0.01698
G1 X134.593 Y122.647 E0.01640
G1 X135.006 Y122.958 E0.01752
G1 X135.371 Y123.304 E0.01702
G1 X135.696 Y123.687 E0.01698
G1 X135.978 Y124.102 E0.01698
G1 X136.213 Y124.545 E0.01698
G1 X136.398 Y125.011 E0.01698
G1 X136.533 Y125.494 E0.01698
G1 X136.614 Y125.989 E0.01698
G1 X136.641 Y126.490 E0.01698
G1 X136.615 Y126.974 E0.01640
G1 X136.533 Y127.485 E0.01752
G1 X136.398 Y127.970 E0.01702
G1 X136.213 Y128.436 E0.01698
G1 X135.978 Y128.879 E0.01698
G1 X135.696 Y129.294 E0.01698
G1 X135.371 Y129.676 E0.01698
G1 X135.007 Y130.021 E0.01698
G1 X134.608 Y130.325 E0.01698
G1 X134.178 Y130.584 E0.01698
G1 X133.723 Y130.794 E0.01698
G1 X133.247 Y130.954 E0.01698
G1 X132.757 Y131.062 E0.01698
G1 X132.259 Y131.117 E0.01698
G1 X131.757 Y131.117 E0.01698
G1 X131.258 Y131.062 E0.01698
G1 X130.768 Y130.954 E0.01698
G1 X130.309 Y130.800 E0.01640
G1 X129.839 Y130.584 E0.01752
G1 X129.408 Y130.325 E0.01702
G1 X129.009 Y130.021 E0.01698
G1 X128.644 Y129.676 E0.01698
G1 X128.320 Y129.294 E0.01698
G1 X128.072 Y128.929 E0.01495
M204 S1000
G1 X128.409 Y128.700 F10800.000
M204 S800
G1 F1500.000
G1 X128.173 Y128.265 E0.01676
G1 X128.004 Y127.839 E0.01549
G1 X127.881 Y127.399 E0.01549
G1 X127.807 Y126.947 E0.01549
G1 X127.783 Y126.490 E0.01549
G1 X127.807 Y126.033 E0.01549
G1 X127.881 Y125.582 E0.01549
G1 X128.004 Y125.141 E0.01549
G1 X128.173 Y124.716 E0.01549
G1 X128.387 Y124.312 E0.01549
G1 X128.644 Y123.933 E0.01549
G1 X128.940 Y123.585 E0.01549
G1 X129.272 Y123.270 E0.01549
G1 X129.637 Y122.993 E0.01549
G1 X130.029 Y122.757 E0.01549
G1 X130.444 Y122.565 E0.01549
G1 X130.877 Y122.419 E0.01549
G1 X131.324 Y122.321 E0.01549
G1 X131.779 Y122.271 E0.01549
G1 X132.237 Y122.271 E0.01549
G1 X132.691 Y122.321 E0.01549
G1 X133.138 Y122.419 E0.01549
G1 X133.572 Y122.565 E0.01549
G1 X133.987 Y122.757 E0.01549
G1 X134.365 Y122.985 E0.01493
G1 X134.743 Y123.270 E0.01602
G1 X135.075 Y123.585 E0.01550
G1 X135.372 Y123.933 E0.01549
G1 X135.628 Y124.312 E0.01549
G1 X135.843 Y124.716 E0.01549
G1 X136.012 Y125.141 E0.01549
G1 X136.134 Y125.582 E0.01549
G1 X136.208 Y126.033 E0.01549
G1 X136.233 Y126.490 E0.01549
G1 X136.209 Y126.931 E0.01493
G1 X136.135 Y127.398 E0.01602
G1 X136.012 Y127.839 E0.01550
G1 X135.843 Y128.265 E0.01549
G1 X135.628 Y128.669 E0.01549
G1 X135.372 Y129.047 E0.01549
G1 X135.075 Y129.396 E0.01549
G1 X134.743 Y129.711 E0.01549
G1 X134.379 Y129.988 E0.01549
G1 X133.987 Y130.223 E0.01549
G1 X133.572 Y130.416 E0.01549
G1 X133.138 Y130.562 E0.01549
G1 X132.691 Y130.660 E0.01549
G1 X132.237 Y130.709 E0.01549
G1 X131.779 Y130.709 E0.01549
G1 X131.324 Y130.660 E0.01549
G1 X130.877 Y130.562 E0.01549
G1 X130.459 Y130.421 E0.01493
G1 X130.029 Y130.224 E0.01602
G1 X129.637 Y129.988 E0.01550
G1 X129.272 Y129.711 E0.01549
G1 X128.940 Y129.396 E0.01549
G1 X128.644 Y129.047 E0.01549
G1 X128.442 Y128.750 E0.01217
M204 S1000
G1 X128.009 Y128.710 F10800.000
G1 F8640.000
G1 X128.173 Y128.265 E-0.12814
G1 X128.004 Y127.839 E-0.10564
G1 X127.881 Y127.399 E-0.10564
G1 X127.807 Y126.947 E-0.10564
G1 X127.783 Y126.490 E-0.10564
G1 X127.807 Y126.033 E-0.10564
G1 X127.881 Y125.582 E-0.10564
G1 X128.004 Y125.141 E-0.10564
G1 X128.173 Y124.716 E-0.10564
G1 X128.387 Y124.312 E-0.10564
G1 X128.644 Y123.933 E-0.10564
G1 X128.940 Y123.585 E-0.10564
G1 X129.065 Y123.466 E-0.03981
G1 E-0.07000 F2100.00000
G1 Z1.000 F10800.000
G1 X123.083 Y131.860
G1 Z0.800
G1 E1.40000 F2100.00000
M204 S800
G1 F2700.000
G1 X122.554 Y130.864 E0.03818
G1 X122.137 Y129.816 E0.03818
G1 X121.835 Y128.730 E0.03818
G1 X121.653 Y127.617 E0.03818
G1 X121.592 Y126.490 E0.03818
G1 X121.653 Y125.364 E0.03818
G1 X121.835 Y124.251 E0.03818
G1 X121.997 Y123.669 E0.02044
G1 X122.137 Y123.164 E0.01774
G1 X122.554 Y122.117 E0.03818
G1 X123.083 Y121.120 E0.03818
G1 X123.716 Y120.187 E0.03818
G1 X124.446 Y119.327 E0.03818
G1 X125.264 Y118.551 E0.03818
G1 X126.162 Y117.869 E0.03818
G1 X127.129 Y117.287 E0.03818
G1 X128.152 Y116.814 E0.03818
G1 X129.221 Y116.454 E0.03818
G1 X130.323 Y116.211 E0.03818
G1 X131.444 Y116.089 E0.03818
G1 X132.572 Y116.089 E0.03818
G1 X133.693 Y116.211 E0.03818
G1 X134.795 Y116.454 E0.03818
G1 X135.863 Y116.814 E0.03818
G1 X136.887 Y117.287 E0.03818
G1 X137.853 Y117.869 E0.03818
G1 X138.751 Y118.551 E0.03818
G1 X139.570 Y119.327 E0.03818
G1 X140.300 Y120.187 E0.03818
G1 X140.933 Y121.120 E0.03818
G1 X141.461 Y122.117 E0.03818
G1 X141.879 Y123.164 E0.03818
G1 X142.181 Y124.251 E0.03818
G1 X142.363 Y125.364 E0.03818
G1 X142.424 Y126.490 E0.03818
G1 X142.363 Y127.617 E0.03818
G1 X142.181 Y128.730 E0.03818
G1 X141.879 Y129.816 E0.03818
G1 X141.461 Y130.864 E0.03818
G1 X140.933 Y131.860 E0.03818
G1 X140.300 Y132.794 E0.03818
G1 X139.570 Y133.654 E0.03818
G1 X138.751 Y134.429 E0.03818
G1 X137.853 Y135.112 E0.03818
G1 X136.887 Y135.693 E0.03818
G1 X135.863 Y136.167 E0.03818
G1 X134.795 Y136.527 E0.03818
G1 X133.693 Y136.769 E0.03818
G1 X132.572 Y136.891 E0.03818
G1 X131.444 Y136.891 E0.03818
G1 X130.323 Y136.769 E0.03818
G1 X129.221 Y136.527 E0.03818
G1 X128.152 Y136.167 E0.03818
G1 X127.129 Y135.693 E0.03818
G1 X126.162 Y135.112 E0.03818
G1 X125.264 Y134.429 E0.03818
G1 X124.446 Y133.654 E0.03818
G1 X123.716 Y132.794 E0.03818
G1 X123.116 Y131.910 E0.03615
M204 S1000
G1 X122.779 Y132.139 F10800.000
M204 S800
G1 F1500.000
G1 X122.184 Y131.035 E0.04243
G1 X121.750 Y129.946 E0.03967
G1 X121.437 Y128.817 E0.03967
G1 X121.247 Y127.661 E0.03967
G1 X121.184 Y126.490 E0.03967
G1 X121.247 Y125.320 E0.03967
G1 X121.437 Y124.163 E0.03967
G1 X121.750 Y123.034 E0.03967
G1 X122.184 Y121.945 E0.03967
G1 X122.733 Y120.910 E0.03967
G1 X123.391 Y119.940 E0.03967
G1 X124.150 Y119.047 E0.03967
G1 X125.001 Y118.241 E0.03967
G1 X125.934 Y117.531 E0.03967
G1 X126.938 Y116.927 E0.03967
G1 X128.001 Y116.435 E0.03967
G1 X129.112 Y116.061 E0.03967
G1 X130.257 Y115.809 E0.03967
G1 X131.422 Y115.682 E0.03967
G1 X132.594 Y115.682 E0.03967
G1 X133.759 Y115.809 E0.03967
G1 X134.904 Y116.061 E0.03967
G1 X136.014 Y116.435 E0.03967
G1 X137.078 Y116.927 E0.03967
G1 X138.082 Y117.531 E0.03967
G1 X139.015 Y118.241 E0.03967
G1 X139.866 Y119.047 E0.03967
G1 X140.625 Y119.940 E0.03967
G1 X141.282 Y120.910 E0.03967
G1 X141.831 Y121.945 E0.03967
G1 X142.265 Y123.034 E0.03967
G1 X142.579 Y124.163 E0.03967
G1 X142.768 Y125.320 E0.03967
G1 X142.832 Y126.490 E0.03967
G1 X142.768 Y127.661 E0.03967
G1 X142.579 Y128.817 E0.03967
G1 X142.265 Y129.946 E0.03967
G1 X141.831 Y131.035 E0.03967
G1 X141.282 Y132.071 E0.03967
G1 X140.625 Y133.041 E0.03967
G1 X139.866 Y133.934 E0.03967
G1 X139.015 Y134.740 E0.03967
G1 X138.082 Y135.449 E0.03967
G1 X137.078 Y136.053 E0.03967
G1 X136.014 Y136.546 E0.03967
G1 X134.904 Y136.920 E0.03967
G1 X133.759 Y137.172 E0.03967
G1 X132.594 Y137.298 E0.03967
G1 X131.422 Y137.298 E0.03967
G1 X130.257 Y137.172 E0.03967
G1 X129.112 Y136.920 E0.03967
G1 X128.001 Y136.546 E0.03967
G1 X126.938 Y136.053 E0.03967
G1 X125.934 Y135.449 E0.03967
G1 X125.001 Y134.740 E0.03967
G1 X124.150 Y133.934 E0.03967
G1 X123.391 Y133.041 E0.03967
G1 X122.813 Y132.188 E0.03486
M204 S1000
G1 X122.971 Y131.788 F10800.000
G1 F8640.000
G1 X122.184 Y131.035 E-0.30325
G1 X121.750 Y129.946 E-0.27062
G1 X121.437 Y128.817 E-0.27062
G1 X121.247 Y127.661 E-0.27062
G1 X121.197 Y126.731 E-0.21490
G1 E-0.07000 F2100.00000
G1 Z1.000 F10800.000
G1 X121.950 Y128.674
G1 Z0.800
G1 E1.40000 F2100.00000
G1 F2968
G1 X134.027 Y116.597 E0.58571
G1 X133.539 Y116.502 E0.01704
G1 X122.027 Y128.014 E0.55831
G1 X121.952 Y127.505 E0.01762
G1 X133.013 Y116.444 E0.53643
M73 Q3 S61
G1 X132.480 Y116.395 E0.01837
G1 X121.922 Y126.952 E0.51201
G1 X121.903 Y126.388 E0.01934
G1 X131.897 Y116.395 E0.48467
M73 P3 R61
G1 X131.460 Y116.395 E0.01495
G1 X131.295 Y116.413 E0.00570
G1 X121.936 Y125.772 E0.45389
G1 X121.957 Y125.397 E0.01286
G1 X122.002 Y125.123 E0.00952
G1 X130.641 Y116.484 E0.41899
G1 X130.372 Y116.513 E0.00927
G1 X129.931 Y116.610 E0.01548
G1 X122.116 Y124.426 E0.37904
G1 X122.323 Y123.635 E0.02802
G1 X129.163 Y116.796 E0.33170
G1 X128.283 Y117.092 E0.03183
G1 X122.634 Y122.741 E0.27394
G1 X122.832 Y122.245 E0.01829
G1 X123.154 Y121.638 E0.02356
G1 X127.177 Y117.615 E0.19512
G1 X126.334 Y118.122 E0.03374
G1 X125.462 Y118.784 E0.03754
G1 X124.733 Y119.476 E0.03448
G1 X123.529 Y120.679 E0.05837
G1 F8640.000
G1 X124.733 Y119.476 E-0.39305
G1 X125.462 Y118.784 E-0.23213
G1 X126.334 Y118.122 E-0.25278
G1 X127.177 Y117.615 E-0.22715
G1 X126.488 Y118.304 E-0.22490
G1 E-0.07000 F2100.00000
G1 Z1.000 F10800.000
G1 X128.912 Y136.294
G1 Z0.800
G1 E1.40000 F2100.00000
G1 F2968
G1 X134.398 Y130.808 E0.26607
G1 X133.836 Y131.078 E0.02139
G1 X133.396 Y131.227 E0.01593
G1 X128.620 Y136.002 E0.23160
G1 X128.191 Y135.848 E0.01564
G1 X132.659 Y131.380 E0.21669
G1 X132.275 Y131.422 E0.01324
G1 X132.034 Y131.422 E0.00827
G1 X127.792 Y135.664 E0.20572
G1 X127.393 Y135.479 E0.01507
G1 X131.479 Y131.393 E0.19815
G1 X131.209 Y131.364 E0.00932
G1 X130.976 Y131.313 E0.00816
G1 X127.019 Y135.271 E0.19194
G1 X126.654 Y135.052 E0.01457
G1 X130.515 Y131.191 E0.18722
G1 X130.088 Y131.034 E0.01558
G1 X126.294 Y134.829 E0.18401
G1 X125.963 Y134.577 E0.01427
G1 X129.689 Y130.850 E0.18071
G1 X129.325 Y130.631 E0.01457
G1 X125.632 Y134.325 E0.17912
G1 X125.316 Y134.057 E0.01419
G1 X128.986 Y130.387 E0.17798
G1 X128.669 Y130.121 E0.01419
G1 X125.016 Y133.774 E0.17716
G1 X124.717 Y133.490 E0.01415
G1 X128.375 Y129.831 E0.17743
G1 X128.107 Y129.516 E0.01419
G1 X124.444 Y133.180 E0.17768
G1 X124.176 Y132.864 E0.01419
G1 X127.868 Y129.172 E0.17906
G1 X127.653 Y128.804 E0.01462
G1 X123.914 Y132.543 E0.18132
G1 X123.678 Y132.195 E0.01440
G1 X127.464 Y128.410 E0.18359
G1 X127.305 Y127.985 E0.01554
G1 X123.443 Y131.848 E0.18731
G1 X123.227 Y131.480 E0.01461
G1 X127.180 Y127.527 E0.19175
G1 X127.098 Y127.025 E0.01741
G1 X123.025 Y131.099 E0.19757
G1 X122.824 Y130.716 E0.01482
G1 X127.070 Y126.470 E0.20592
G1 X127.117 Y125.840 E0.02167
G1 X122.658 Y130.299 E0.21626
G1 X122.492 Y129.882 E0.01540
G1 X127.277 Y125.097 E0.23205
G1 X127.328 Y124.913 E0.00655
G1 X127.526 Y124.417 E0.01834
G1 X127.696 Y124.094 E0.01251
G1 X122.350 Y129.441 E0.25931
G1 X122.223 Y128.985 E0.01625
G1 X134.505 Y116.703 E0.59565
G1 X134.713 Y116.748 E0.00730
G1 X134.959 Y116.831 E0.00892
G1 X129.618 Y122.173 E0.25906
G1 X130.180 Y121.902 E0.02140
G1 X130.620 Y121.754 E0.01593
G1 X135.396 Y116.978 E0.23161
G1 X135.825 Y117.132 E0.01564
G1 X131.357 Y121.601 E0.21669
G1 X131.740 Y121.559 E0.01324
G1 X131.982 Y121.559 E0.00827
G1 X136.224 Y117.317 E0.20572
G1 X136.622 Y117.501 E0.01507
G1 X132.537 Y121.587 E0.19815
G1 X132.807 Y121.617 E0.00933
G1 X133.039 Y121.668 E0.00816
G1 X136.997 Y117.710 E0.19195
G1 X137.361 Y117.929 E0.01457
G1 X133.501 Y121.789 E0.18722
G1 X133.928 Y121.945 E0.01560
G1 X137.721 Y118.152 E0.18395
G1 X138.053 Y118.404 E0.01427
G1 X134.327 Y122.130 E0.18071
G1 X134.691 Y122.349 E0.01457
G1 X138.384 Y118.656 E0.17912
G1 X138.700 Y118.923 E0.01419
G1 X135.030 Y122.594 E0.17800
G1 X135.346 Y122.860 E0.01420
G1 X138.999 Y119.207 E0.17716
G1 X139.299 Y119.491 E0.01415
G1 X135.640 Y123.149 E0.17743
G1 X135.908 Y123.465 E0.01419
G1 X139.572 Y119.801 E0.17768
G1 X139.840 Y120.116 E0.01419
G1 X136.148 Y123.809 E0.17906
G1 X136.363 Y124.177 E0.01462
G1 X140.102 Y120.438 E0.18132
G1 X140.337 Y120.785 E0.01440
G1 X136.552 Y124.571 E0.18359
G1 X136.711 Y124.995 E0.01554
G1 X140.573 Y121.133 E0.18731
G1 X140.789 Y121.500 E0.01461
G1 X136.835 Y125.454 E0.19175
G1 X136.917 Y125.955 E0.01741
G1 X140.991 Y121.881 E0.19756
G1 X141.192 Y122.264 E0.01482
G1 X136.946 Y126.510 E0.20592
G1 X136.897 Y127.142 E0.02173
G1 X141.358 Y122.681 E0.21634
G1 X141.524 Y123.098 E0.01540
G1 X136.739 Y127.883 E0.23205
G1 X136.688 Y128.067 E0.00656
G1 X136.490 Y128.564 E0.01834
G1 X136.319 Y128.886 E0.01250
G1 X141.666 Y123.539 E0.25931
G1 X141.793 Y123.996 E0.01625
G1 X129.511 Y136.278 E0.59566
G1 X129.989 Y136.383 E0.01679
G1 X141.906 Y124.466 E0.57798
G1 X141.989 Y124.967 E0.01741
G1 X130.476 Y136.479 E0.55832
G1 X131.002 Y136.536 E0.01815
G1 X142.063 Y125.475 E0.53643
G1 X142.093 Y126.028 E0.01900
G1 X131.536 Y136.586 E0.51202
G1 X132.119 Y136.586 E0.02000
G1 X142.113 Y126.592 E0.48468
G1 X142.079 Y127.209 E0.02118
G1 X132.720 Y136.568 E0.45390
G1 X133.375 Y136.497 E0.02257
G1 X142.014 Y127.857 E0.41900
G1 X141.900 Y128.555 E0.02424
G1 X134.084 Y136.371 E0.37904
G1 X134.713 Y136.232 E0.02207
G1 X134.853 Y136.185 E0.00508
G1 X141.693 Y129.345 E0.33171
G1 X141.589 Y129.719 E0.01329
G1 X141.381 Y130.240 E0.01924
G1 X135.733 Y135.889 E0.27395
G1 X136.839 Y135.366 E0.04195
G1 X140.862 Y131.342 E0.19514
G1 X140.671 Y131.703 E0.01399
G1 X140.057 Y132.609 E0.03754
G1 X139.368 Y133.420 E0.03649
G1 X137.766 Y135.022 E0.07769
;BEFORE_LAYER_CHANGE
G92 E0.0
;1


G1 F8640.000
G1 X139.368 Y133.420 E-0.52308
G1 X140.057 Y132.609 E-0.24567
G1 X140.671 Y131.703 E-0.25278
G1 X140.862 Y131.342 E-0.09422
G1 X140.206 Y131.998 E-0.21425
G1 E-0.07000 F2100.00000
G1 Z1.000 F10800.000
;AFTER_LAYER_CHANGE
;1
G1 Z1.200
G1 X135.978 Y128.879
G1 Z1.000
G1 E1.40000 F2100.00000
M204 S800
G1 F972
G1 X135.696 Y129.294 E0.01698
G1 X135.371 Y129.676 E0.01698
G1 X135.007 Y130.021 E0.01698
G1 X134.608 Y130.325 E0.01698
G1 X134.178 Y130.584 E0.01698
G1 X133.723 Y130.794 E0.01698
G1 X133.247 Y130.954 E0.01698
G1 X132.757 Y131.062 E0.01698
G1 X132.259 Y131.117 E0.01698
G1 X131.757 Y131.117 E0.01698
G1 X131.258 Y131.062 E0.01698
G1 X130.768 Y130.954 E0.01698
G1 X130.314 Y130.801 E0.01623
G1 X129.839 Y130.584 E0.01767
G1 X129.408 Y130.325 E0.01703
G1 X129.009 Y130.021 E0.01698
G1 X128.644 Y129.676 E0.01698
G1 X128.320 Y129.294 E0.01698
G1 X128.038 Y128.879 E0.01698
G1 X127.803 Y128.436 E0.01698
G1 X127.617 Y127.970 E0.01698
G1 X127.483 Y127.486 E0.01698
G1 X127.402 Y126.991 E0.01698
G1 X127.375 Y126.490 E0.01698
G1 X127.402 Y125.989 E0.01698
G1 X127.483 Y125.494 E0.01698
G1 X127.617 Y125.011 E0.01698
G1 X127.803 Y124.545 E0.01698
G1 X128.038 Y124.102 E0.01698
G1 X128.320 Y123.687 E0.01698
G1 X128.630 Y123.321 E0.01623
G1 X129.007 Y122.960 E0.01767
G1 X129.408 Y122.656 E0.01703
G1 X129.838 Y122.397 E0.01698
G1 X130.293 Y122.186 E0.01698
G1 X130.768 Y122.026 E0.01698
G1 X131.258 Y121.918 E0.01698
G1 X131.757 Y121.864 E0.01698
G1 X132.259 Y121.864 E0.01698
G1 X132.757 Y121.918 E0.01698
G1 X133.247 Y122.026 E0.01698
G1 X133.702 Y122.179 E0.01623
G1 X134.177 Y122.396 E0.01767
G1 X134.608 Y122.656 E0.01703
G1 X135.007 Y122.959 E0.01698
G1 X135.371 Y123.304 E0.01698
G1 X135.696 Y123.687 E0.01698
G1 X135.978 Y124.102 E0.01698
G1 X136.213 Y124.545 E0.01698
G1 X136.398 Y125.011 E0.01698
G1 X136.533 Y125.494 E0.01698
G1 X136.614 Y125.989 E0.01698
G1 X136.641 Y126.490 E0.01698
G1 X136.614 Y126.991 E0.01698
G1 X136.533 Y127.486 E0.01698
G1 X136.398 Y127.970 E0.01698
G1 X136.213 Y128.436 E0.01698
G1 X136.006 Y128.826 E0.01495
M204 S1000
G1 X135.646 Y128.635 F10800.000
M204 S800
G1 F972
G1 X135.372 Y129.047 E0.01676
G1 X135.075 Y129.396 E0.01549
G1 X134.743 Y129.711 E0.01549
G1 X134.379 Y129.988 E0.01549
G1 X133.987 Y130.223 E0.01549
G1 X133.572 Y130.416 E0.01549
G1 X133.138 Y130.562 E0.01549
G1 X132.691 Y130.660 E0.01549
G1 X132.237 Y130.709 E0.01549
G1 X131.779 Y130.709 E0.01549
G1 X131.324 Y130.660 E0.01549
G1 X130.877 Y130.562 E0.01549
G1 X130.464 Y130.422 E0.01477
G1 X130.029 Y130.224 E0.01618
G1 X129.637 Y129.988 E0.01550
G1 X129.272 Y129.711 E0.01549
G1 X128.940 Y129.396 E0.01549
G1 X128.644 Y129.047 E0.01549
G1 X128.387 Y128.669 E0.01549
G1 X128.173 Y128.265 E0.01549
G1 X128.004 Y127.839 E0.01549
G1 X127.881 Y127.399 E0.01549
G1 X127.807 Y126.947 E0.01549
G1 X127.783 Y126.490 E0.01549
G1 X127.807 Y126.033 E0.01549
G1 X127.881 Y125.582 E0.01549
G1 X128.004 Y125.141 E0.01549
G1 X128.173 Y124.716 E0.01549
G1 X128.387 Y124.312 E0.01549
G1 X128.644 Y123.933 E0.01549
G1 X128.927 Y123.601 E0.01477
G1 X129.272 Y123.270 E0.01618
G1 X129.637 Y122.993 E0.01550
G1 X130.029 Y122.757 E0.01549
G1 X130.444 Y122.565 E0.01549
G1 X130.877 Y122.419 E0.01549
G1 X131.324 Y122.321 E0.01549
G1 X131.779 Y122.271 E0.01549
G1 X132.237 Y122.271 E0.01549
G1 X132.691 Y122.321 E0.01549
G1 X133.138 Y122.419 E0.01549
G1 X133.552 Y122.558 E0.01477
G1 X133.987 Y122.757 E0.01618
G1 X134.379 Y122.993 E0.01550
G1 X134.743 Y123.270 E0.01549
G1 X135.075 Y123.585 E0.01549
G1 X135.372 Y123.933 E0.01549
G1 X135.628 Y124.312 E0.01549
G1 X135.843 Y124.716 E0.01549
G1 X136.012 Y125.141 E0.01549
G1 X136.134 Y125.582 E0.01549
G1 X136.208 Y126.033 E0.01549
G1 X136.233 Y126.490 E0.01549
G1 X136.208 Y126.947 E0.01549
G1 X136.134 Y127.399 E0.01549
G1 X136.012 Y127.839 E0.01549
G1 X135.843 Y128.265 E0.01549
G1 X135.674 Y128.582 E0.01217
M204 S1000
G1 X135.842 Y128.984 F10800.000
G1 F8640.000
G1 X135.372 Y129.047 E-0.12814
G1 X135.075 Y129.396 E-0.10564
G1 X134.743 Y129.711 E-0.10564
G1 X134.379 Y129.988 E-0.10564
G1 X133.987 Y130.223 E-0.10564
G1 X133.572 Y130.416 E-0.10564
G1 X133.138 Y130.562 E-0.10564
G1 X132.691 Y130.660 E-0.10564
G1 X132.237 Y130.709 E-0.10564
G1 X131.779 Y130.709 E-0.10564
G1 X131.324 Y130.660 E-0.10564
G1 X130.877 Y130.562 E-0.10564
G1 X130.714 Y130.507 E-0.03981
G1 E-0.07000 F2100.00000
G1 Z1.200 F10800.000
G1 X140.933 Y131.860
G1 Z1.000
G1 E1.40000 F2100.00000
M204 S800
G1 F972
G1 X140.300 Y132.794 E0.03818
G1 X139.570 Y133.654 E0.03818
G1 X138.751 Y134.429 E0.03818
G1 X137.853 Y135.112 E0.03818
G1 X136.887 Y135.693 E0.03818
G1 X135.863 Y136.167 E0.03818
G1 X134.795 Y136.527 E0.03818
G1 X133.693 Y136.769 E0.03818
G1 X132.572 Y136.891 E0.03818
G1 X131.444 Y136.891 E0.03818
G1 X130.323 Y136.769 E0.03818
G1 X129.221 Y136.527 E0.03818
G1 X128.152 Y136.167 E0.03818
G1 X127.129 Y135.693 E0.03818
G1 X126.162 Y135.112 E0.03818
G1 X125.264 Y134.429 E0.03818
G1 X124.446 Y133.654 E0.03818
G1 X123.716 Y132.794 E0.03818
G1 X123.083 Y131.860 E0.03818
G1 X122.554 Y130.864 E0.03818
G1 X122.137 Y129.816 E0.03818
G1 X122.018 Y129.388 E0.01504
G1 X121.835 Y128.730 E0.02314
G1 X121.653 Y127.617 E0.03818
G1 X121.592 Y126.490 E0.03818
G1 X121.653 Y125.364 E0.03818
G1 X121.835 Y124.251 E0.03818
G1 X122.137 Y123.164 E0.03818
G1 X122.554 Y122.117 E0.03818
G1 X123.083 Y121.120 E0.03818
G1 X123.716 Y120.187 E0.03818
G1 X124.446 Y119.327 E0.03818
G1 X125.264 Y118.551 E0.03818
G1 X126.162 Y117.869 E0.03818
G1 X127.129 Y117.287 E0.03818
G1 X128.152 Y116.814 E0.03818
G1 X129.221 Y116.454 E0.03818
G1 X130.323 Y116.211 E0.03818
G1 X131.444 Y116.089 E0.03818
G1 X132.572 Y116.089 E0.03818
G1 X133.693 Y116.211 E0.03818
G1 X134.795 Y116.454 E0.03818
G1 X135.863 Y116.814 E0.03818
G1 X136.887 Y117.287 E0.03818
G1 X137.853 Y117.869 E0.03818
G1 X138.751 Y118.551 E0.03818
G1 X139.570 Y119.327 E0.03818
G1 X140.300 Y120.187 E0.03818
G1 X140.933 Y121.120 E0.03818
G1 X141.461 Y122.117 E0.03818
G1 X141.879 Y123.164 E0.03818
G1 X142.181 Y124.251 E0.03818
G1 X142.363 Y125.364 E0.03818
G1 X142.424 Y126.490 E0.03818
G1 X142.363 Y127.617 E0.03818
G1 X142.181 Y128.730 E0.03818
G1 X141.879 Y129.816 E0.03818
G1 X141.461 Y130.864 E0.03818
G1 X140.961 Y131.807 E0.03615
M204 S1000
G1 X141.321 Y131.998 F10800.000
M204 S800
G1 F972
G1 X140.625 Y133.041 E0.04243
G1 X139.866 Y133.934 E0.03967
G1 X139.015 Y134.740 E0.03967
G1 X138.082 Y135.449 E0.03967
G1 X137.078 Y136.053 E0.03967
G1 X136.014 Y136.546 E0.03967
G1 X134.904 Y136.920 E0.03967
G1 X133.759 Y137.172 E0.03967
G1 X132.594 Y137.298 E0.03967
G1 X131.422 Y137.298 E0.03967
G1 X130.257 Y137.172 E0.03967
G1 X129.112 Y136.920 E0.03967
G1 X128.001 Y136.546 E0.03967
G1 X126.938 Y136.053 E0.03967
G1 X125.934 Y135.449 E0.03967
G1 X125.001 Y134.740 E0.03967
G1 X124.150 Y133.934 E0.03967
G1 X123.391 Y133.041 E0.03967
G1 X122.733 Y132.071 E0.03967
G1 X122.184 Y131.035 E0.03967
G1 X121.750 Y129.946 E0.03967
G1 X121.626 Y129.497 E0.01579
G1 X121.437 Y128.817 E0.02388
G1 X121.247 Y127.661 E0.03967
G1 X121.184 Y126.490 E0.03967
G1 X121.247 Y125.320 E0.03967
G1 X121.437 Y124.163 E0.03967
G1 X121.750 Y123.034 E0.03967
G1 X122.184 Y121.945 E0.03967
G1 X122.733 Y120.910 E0.03967
G1 X123.391 Y119.940 E0.03967
G1 X124.150 Y119.047 E0.03967
G1 X125.001 Y118.241 E0.03967
G1 X125.934 Y117.531 E0.03967
G1 X126.938 Y116.927 E0.03967
G1 X128.001 Y116.435 E0.03967
G1 X129.112 Y116.061 E0.03967
G1 X130.257 Y115.809 E0.03967
G1 X131.422 Y115.682 E0.03967
G1 X132.594 Y115.682 E0.03967
G1 X133.759 Y115.809 E0.03967
G1 X134.904 Y116.061 E0.03967
G1 X136.014 Y116.435 E0.03967
G1 X137.078 Y116.927 E0.03967
G1 X138.082 Y117.531 E0.03967
G1 X139.015 Y118.241 E0.03967
G1 X139.866 Y119.047 E0.03967
G1 X140.625 Y119.940 E0.03967
G1 X141.282 Y120.910 E0.03967
G1 X141.831 Y121.945 E0.03967
G1 X142.265 Y123.034 E0.03967
G1 X142.579 Y124.163 E0.03967
G1 X142.768 Y125.320 E0.03967
G1 X142.832 Y126.490 E0.03967
G1 X142.768 Y127.661 E0.03967
G1 X142.579 Y128.817 E0.03967
G1 X142.265 Y129.946 E0.03967
G1 X141.831 Y131.035 E0.03967
G1 X141.349 Y131.945 E0.03486
M204 S1000
G1 X140.921 Y131.993 F10800.000
G1 F8640.000
G1 X140.625 Y133.041 E-0.30325
G1 X139.866 Y133.934 E-0.27062
G1 X139.015 Y134.740 E-0.27062
G1 X138.082 Y135.449 E-0.27062
G1 X137.285 Y135.929 E-0.21490
G1 E-0.07000 F2100.00000
G1 Z1.200 F10800.000
G1 X137.653 Y134.876
G1 Z1.000
G1 E1.40000 F2100.00000
G1 F972
G1 X137.249 Y134.204 E0.02655
G1 X136.812 Y133.919 E0.01765
G1 X136.376 Y133.930 E0.01479
G1 X135.502 Y134.217 E0.03113
G1 X135.065 Y134.481 E0.01726
G1 X134.629 Y134.887 E0.02020
G1 X134.192 Y135.522 E0.02607
G1 X133.755 Y136.248 E0.02869
G1 X133.374 Y136.497 E0.01542
G1 X133.096 Y136.527 E0.00946
G1 X132.881 Y136.522 E0.00725
G1 X132.008 Y136.234 E0.03113
G1 X131.571 Y135.971 E0.01726
G1 X131.134 Y135.564 E0.02020
G1 X130.698 Y134.930 E0.02607
G1 X130.261 Y134.204 E0.02869
G1 X129.824 Y133.919 E0.01765
G1 X129.387 Y133.930 E0.01479
G1 X128.514 Y134.217 E0.03113
G1 X128.077 Y134.481 E0.01726
G1 X127.640 Y134.887 E0.02020
G1 X127.271 Y135.423 E0.02200
G1 X126.334 Y134.859 E0.03703
G1 X125.462 Y134.196 E0.03706
G1 X124.668 Y133.443 E0.03706
G1 X124.278 Y132.984 E0.02040
G1 X125.019 Y132.740 E0.02644
G1 X125.456 Y132.477 E0.01726
G1 X125.893 Y132.070 E0.02020
G1 X126.330 Y131.436 E0.02607
G1 X126.767 Y130.709 E0.02869
G1 X127.203 Y130.424 E0.01765
G1 X127.640 Y130.436 E0.01479
G1 X128.514 Y130.723 E0.03113
G1 X128.950 Y130.987 E0.01726
G1 X129.387 Y131.393 E0.02020
G1 X129.824 Y132.027 E0.02607
G1 X130.261 Y132.754 E0.02869
G1 X130.698 Y133.039 E0.01765
G1 X131.134 Y133.027 E0.01479
G1 X132.008 Y132.740 E0.03113
G1 X132.445 Y132.477 E0.01726
G1 X132.881 Y132.070 E0.02020
G1 X133.456 Y131.206 E0.03512
G1 X133.836 Y131.078 E0.01356
G1 X134.321 Y130.854 E0.01810
G1 X134.864 Y130.513 E0.02170
G1 X135.502 Y130.723 E0.02272
G1 X135.939 Y130.987 E0.01726
G1 X136.376 Y131.393 E0.02020
G1 X136.812 Y132.027 E0.02607
G1 X137.249 Y132.754 E0.02869
G1 X137.686 Y133.039 E0.01765
G1 X138.123 Y133.027 E0.01479
G1 X138.996 Y132.740 E0.03113
G1 X139.433 Y132.477 E0.01726
G1 X139.870 Y132.070 E0.02020
G1 X140.307 Y131.436 E0.02607
G1 X140.743 Y130.709 E0.02869
G1 X141.180 Y130.424 E0.01765
G1 X141.307 Y130.428 E0.00428
G1 X141.589 Y129.719 E0.02584
G1 X141.882 Y128.664 E0.03706
G1 X142.064 Y127.486 E0.04035
G1 X141.617 Y127.899 E0.02061
G1 X141.180 Y128.533 E0.02607
G1 X140.743 Y129.260 E0.02869
G1 X140.307 Y129.545 E0.01765
G1 X139.870 Y129.533 E0.01479
G1 X138.996 Y129.246 E0.03113
G1 X138.559 Y128.983 E0.01726
G1 X138.123 Y128.576 E0.02020
G1 X137.686 Y127.942 E0.02607
G1 X137.249 Y127.215 E0.02869
G1 X136.919 Y127.000 E0.01335
G1 F8640.000
G1 X137.249 Y127.215 E-0.09104
G1 X137.686 Y127.942 E-0.19572
G1 X138.123 Y128.576 E-0.17782
G1 X138.559 Y128.983 E-0.13779
G1 X138.996 Y129.246 E-0.11776
G1 X139.870 Y129.533 E-0.21234
G1 X140.307 Y129.545 E-0.10089
G1 X140.743 Y129.260 E-0.12043
G1 X141.137 Y128.606 E-0.17621
G1 E-0.07000 F2100.00000
G1 Z1.200 F10800.000
G1 X136.636 Y124.783
G1 Z1.000
G1 E1.40000 F2100.00000
G1 F972
G1 X136.812 Y125.039 E0.01051
G1 X137.249 Y125.765 E0.02869
G1 X137.686 Y126.051 E0.01765
G1 X138.123 Y126.039 E0.01479
G1 X138.996 Y125.752 E0.03113
G1 X139.433 Y125.488 E0.01726
G1 X139.870 Y125.082 E0.02020
G1 X140.307 Y124.447 E0.02607
G1 X140.743 Y123.721 E0.02869
G1 X141.180 Y123.436 E0.01765
G1 X141.643 Y123.456 E0.01568
G1 X141.589 Y123.262 E0.00682
G1 X141.184 Y122.245 E0.03706
G1 X140.985 Y121.870 E0.01438
G1 X140.743 Y122.271 E0.01586
G1 X140.307 Y122.556 E0.01765
G1 X139.870 Y122.545 E0.01479
G1 X138.996 Y122.257 E0.03113
G1 X138.559 Y121.994 E0.01726
G1 X138.123 Y121.588 E0.02020
G1 X137.686 Y120.953 E0.02607
G1 X137.249 Y120.227 E0.02869
G1 X136.812 Y119.942 E0.01765
G1 X136.376 Y119.953 E0.01479
G1 X135.502 Y120.241 E0.03113
G1 X135.065 Y120.504 E0.01726
G1 X134.629 Y120.911 E0.02020
G1 X134.192 Y121.545 E0.02607
G1 X133.945 Y121.955 E0.01619
G1 X133.329 Y121.732 E0.02218
G1 X132.807 Y121.617 E0.01810
G1 X132.275 Y121.559 E0.01810
G1 X131.740 Y121.559 E0.01810
G1 X131.174 Y121.624 E0.01931
G1 X130.698 Y120.953 E0.02786
G1 X130.261 Y120.227 E0.02869
G1 X129.824 Y119.942 E0.01765
G1 X129.387 Y119.953 E0.01479
G1 X128.514 Y120.241 E0.03113
G1 X128.077 Y120.504 E0.01726
G1 X127.640 Y120.911 E0.02020
G1 X127.203 Y121.545 E0.02607
G1 X126.767 Y122.271 E0.02869
G1 X126.330 Y122.556 E0.01765
G1 X125.893 Y122.545 E0.01479
G1 X125.019 Y122.257 E0.03113
G1 X124.583 Y121.994 E0.01726
G1 X124.146 Y121.588 E0.02020
G1 X123.641 Y120.840 E0.03052
G1 X123.345 Y121.278 E0.01789
G1 X122.832 Y122.245 E0.03706
G1 X122.427 Y123.262 E0.03706
G1 X122.169 Y124.191 E0.03262
G1 X122.399 Y124.405 E0.01064
G1 X122.836 Y125.039 E0.02607
G1 X123.272 Y125.765 E0.02869
G1 X123.709 Y126.051 E0.01765
G1 X124.146 Y126.039 E0.01479
G1 X125.019 Y125.752 E0.03113
G1 X125.456 Y125.488 E0.01726
G1 X125.893 Y125.082 E0.02020
G1 X126.330 Y124.447 E0.02607
G1 X126.767 Y123.721 E0.02869
G1 X127.203 Y123.436 E0.01765
G1 X127.640 Y123.447 E0.01479
G1 X128.027 Y123.575 E0.01377
G1 X127.776 Y123.944 E0.01511
G1 X127.526 Y124.417 E0.01810
G1 X127.328 Y124.913 E0.01810
G1 X127.185 Y125.429 E0.01810
G1 X127.098 Y125.956 E0.01810
G1 X127.069 Y126.490 E0.01810
G1 X127.098 Y127.024 E0.01810
G1 X127.185 Y127.552 E0.01810
G1 X127.328 Y128.067 E0.01810
G1 X127.400 Y128.248 E0.00659
G1 X127.203 Y128.533 E0.01172
G1 X126.767 Y129.260 E0.02869
G1 X126.330 Y129.545 E0.01765
G1 X125.893 Y129.533 E0.01479
G1 X125.019 Y129.246 E0.03113
G1 X124.583 Y128.983 E0.01726
G1 X124.146 Y128.576 E0.02020
G1 X123.709 Y127.942 E0.02607
G1 X123.272 Y127.215 E0.02869
G1 X122.836 Y126.930 E0.01765
G1 X122.399 Y126.942 E0.01479
G1 X121.930 Y127.096 E0.01670
G1 F8640.000
G1 X122.399 Y126.942 E-0.11392
G1 X122.836 Y126.930 E-0.10089
G1 X123.272 Y127.215 E-0.12043
G1 X123.709 Y127.942 E-0.19572
G1 X124.146 Y128.576 E-0.17782
G1 X124.583 Y128.983 E-0.13779
G1 X125.019 Y129.246 E-0.11776
G1 X125.893 Y129.533 E-0.21234
G1 X126.330 Y129.545 E-0.10089
G1 X126.520 Y129.421 E-0.05244
G1 E-0.07000 F2100.00000
G1 Z1.200 F10800.000
G1 X128.799 Y116.918
G1 Z1.000
G1 E1.40000 F2100.00000
G1 F972
G1 X128.950 Y117.010 E0.00600
G1 X129.387 Y117.416 E0.02020
G1 X129.824 Y118.051 E0.02607
G1 X130.261 Y118.777 E0.02869
G1 X130.698 Y119.062 E0.01765
G1 X131.134 Y119.051 E0.01479
G1 X132.008 Y118.763 E0.03113
G1 X132.445 Y118.500 E0.01726
G1 X132.881 Y118.093 E0.02020
G1 X133.318 Y117.459 E0.02607
G1 X133.755 Y116.733 E0.02869
G1 X133.978 Y116.587 E0.00903
G1 X134.713 Y116.748 E0.02545
G1 X135.750 Y117.098 E0.03706
G1 X136.314 Y117.359 E0.02101
G1 X136.376 Y117.416 E0.00287
G1 X136.812 Y118.051 E0.02607
G1 X137.249 Y118.777 E0.02869
G1 X137.686 Y119.062 E0.01765
G1 X138.123 Y119.051 E0.01479
G1 X138.651 Y118.877 E0.01882
;BEFORE_LAYER_CHANGE
G92 E0.0
;1.2


G1 F8640.000
G1 X138.123 Y119.051 E-0.12837
G1 X137.686 Y119.062 E-0.10089
G1 X137.249 Y118.777 E-0.12043
G1 X136.812 Y118.051 E-0.19572
G1 X136.376 Y117.416 E-0.17782
G1 X136.314 Y117.359 E-0.01959
G1 X135.750 Y117.098 E-0.14333
G1 X134.713 Y116.748 E-0.25278
G1 X133.978 Y116.587 E-0.17359
G1 X133.915 Y116.628 E-0.01747
G1 E-0.07000 F2100.00000
G1 Z1.200 F10800.000
;AFTER_LAYER_CHANGE
;1.2
G1 Z1.400
G1 X132.757 Y121.918
G1 Z1.200
G1 E1.40000 F2100.00000
M204 S800
G1 F955
G1 X133.247 Y122.026 E0.01698
G1 X133.723 Y122.186 E0.01698
G1 X134.178 Y122.397 E0.01698
G1 X134.608 Y122.656 E0.01698
G1 X135.007 Y122.959 E0.01698
G1 X135.371 Y123.304 E0.01698
G1 X135.696 Y123.687 E0.01698
G1 X135.978 Y124.102 E0.01698
G1 X136.213 Y124.545 E0.01698
G1 X136.398 Y125.011 E0.01698
G1 X136.533 Y125.494 E0.01698
G1 X136.614 Y125.989 E0.01698
G1 X136.641 Y126.490 E0.01698
G1 X136.614 Y126.991 E0.01698
G1 X136.533 Y127.486 E0.01698
G1 X136.398 Y127.970 E0.01698
G1 X136.213 Y128.436 E0.01698
G1 X135.978 Y128.879 E0.01698
G1 X135.696 Y129.294 E0.01698
G1 X135.371 Y129.676 E0.01698
G1 X135.007 Y130.021 E0.01698
G1 X134.608 Y130.325 E0.01698
G1 X134.178 Y130.584 E0.01698
G1 X133.723 Y130.794 E0.01698
G1 X133.247 Y130.954 E0.01698
G1 X132.757 Y131.062 E0.01698
G1 X132.259 Y131.117 E0.01698
G1 X131.757 Y131.117 E0.01698
G1 X131.258 Y131.062 E0.01698
G1 X130.768 Y130.954 E0.01698
G1 X130.293 Y130.794 E0.01698
G1 X129.838 Y130.584 E0.01698
G1 X129.408 Y130.325 E0.01698
G1 X129.009 Y130.021 E0.01698
G1 X128.644 Y129.676 E0.01698
G1 X128.320 Y129.294 E0.01698
G1 X128.038 Y128.879 E0.01698
G1 X127.803 Y128.436 E0.01698
G1 X127.617 Y127.970 E0.01698
G1 X127.483 Y127.486 E0.01698
G1 X127.402 Y126.991 E0.01698
G1 X127.375 Y126.490 E0.01698
G1 X127.402 Y125.989 E0.01698
G1 X127.483 Y125.494 E0.01698
G1 X127.617 Y125.011 E0.01698
G1 X127.803 Y124.545 E0.01698
G1 X128.038 Y124.102 E0.01698
G1 X128.320 Y123.687 E0.01698
G1 X128.644 Y123.304 E0.01698
G1 X129.009 Y122.959 E0.01698
G1 X129.408 Y122.656 E0.01698
G1 X129.838 Y122.397 E0.01698
G1 X130.293 Y122.186 E0.01698
G1 X130.768 Y122.026 E0.01698
G1 X131.258 Y121.918 E0.01698
G1 X131.757 Y121.864 E0.01698
G1 X132.259 Y121.864 E0.01698
G1 X132.698 Y121.912 E0.01495
M204 S1000
G1 X132.654 Y122.317 F10800.000
M204 S800
G1 F955
G1 X133.138 Y122.419 E0.01676
G1 X133.572 Y122.565 E0.01549
G1 X133.987 Y122.757 E0.01549
G1 X134.379 Y122.993 E0.01549
G1 X134.743 Y123.270 E0.01549
G1 X135.075 Y123.585 E0.01549
G1 X135.372 Y123.933 E0.01549
G1 X135.628 Y124.312 E0.01549
G1 X135.843 Y124.716 E0.01549
G1 X136.012 Y125.141 E0.01549
G1 X136.134 Y125.582 E0.01549
G1 X136.208 Y126.033 E0.01549
G1 X136.233 Y126.490 E0.01549
G1 X136.208 Y126.947 E0.01549
G1 X136.134 Y127.399 E0.01549
G1 X136.012 Y127.839 E0.01549
G1 X135.843 Y128.265 E0.01549
G1 X135.628 Y128.669 E0.01549
G1 X135.372 Y129.047 E0.01549
G1 X135.075 Y129.396 E0.01549
G1 X134.743 Y129.711 E0.01549
G1 X134.379 Y129.988 E0.01549
G1 X133.987 Y130.223 E0.01549
G1 X133.572 Y130.416 E0.01549
G1 X133.138 Y130.562 E0.01549
G1 X132.691 Y130.660 E0.01549
G1 X132.237 Y130.709 E0.01549
G1 X131.779 Y130.709 E0.01549
G1 X131.324 Y130.660 E0.01549
G1 X130.877 Y130.562 E0.01549
G1 X130.444 Y130.416 E0.01549
G1 X130.029 Y130.223 E0.01549
G1 X129.637 Y129.988 E0.01549
G1 X129.272 Y129.711 E0.01549
G1 X128.940 Y129.396 E0.01549
G1 X128.644 Y129.047 E0.01549
G1 X128.387 Y128.669 E0.01549
G1 X128.173 Y128.265 E0.01549
G1 X128.004 Y127.839 E0.01549
G1 X127.881 Y127.399 E0.01549
G1 X127.807 Y126.947 E0.01549
G1 X127.783 Y126.490 E0.01549
G1 X127.807 Y126.033 E0.01549
G1 X127.881 Y125.582 E0.01549
G1 X128.004 Y125.141 E0.01549
G1 X128.173 Y124.716 E0.01549
G1 X128.387 Y124.312 E0.01549
G1 X128.644 Y123.933 E0.01549
G1 X128.940 Y123.585 E0.01549
G1 X129.272 Y123.270 E0.01549
G1 X129.637 Y122.993 E0.01549
G1 X130.029 Y122.757 E0.01549
G1 X130.444 Y122.565 E0.01549
G1 X130.877 Y122.419 E0.01549
G1 X131.324 Y122.321 E0.01549
G1 X131.779 Y122.271 E0.01549
G1 X132.237 Y122.271 E0.01549
G1 X132.594 Y122.310 E0.01217
M204 S1000
G1 X132.905 Y122.005 F10800.000
G1 F8640.000
G1 X133.138 Y122.419 E-0.12814
G1 X133.572 Y122.565 E-0.10564
G1 X133.987 Y122.757 E-0.10564
G1 X134.379 Y122.993 E-0.10564
G1 X134.743 Y123.270 E-0.10564
G1 X135.075 Y123.585 E-0.10564
G1 X135.372 Y123.933 E-0.10564
G1 X135.628 Y124.312 E-0.10564
G1 X135.843 Y124.716 E-0.10564
G1 X136.012 Y125.141 E-0.10564
G1 X136.134 Y125.582 E-0.10564
G1 X136.208 Y126.033 E-0.10564
G1 X136.218 Y126.206 E-0.03981
G1 E-0.07000 F2100.00000
G1 Z1.400 F10800.000
G1 X133.693 Y116.211
G1 Z1.200
G1 E1.40000 F2100.00000
M204 S800
G1 F955
G1 X134.795 Y116.454 E0.03818
G1 X135.863 Y116.814 E0.03818
G1 X136.887 Y117.287 E0.03818
G1 X137.853 Y117.869 E0.03818
G1 X138.751 Y118.551 E0.03818
G1 X139.570 Y119.327 E0.03818
G1 X140.300 Y120.187 E0.03818
G1 X140.933 Y121.120 E0.03818
G1 X141.461 Y122.117 E0.03818
G1 X141.879 Y123.164 E0.03818
G1 X141.955 Y123.439 E0.00964
G1 X142.181 Y124.251 E0.02854
G1 X142.363 Y125.364 E0.03818
G1 X142.424 Y126.490 E0.03818
G1 X142.363 Y127.617 E0.03818
G1 X142.181 Y128.730 E0.03818
G1 X141.879 Y129.816 E0.03818
G1 X141.461 Y130.864 E0.03818
G1 X140.933 Y131.860 E0.03818
G1 X140.300 Y132.794 E0.03818
G1 X139.570 Y133.654 E0.03818
G1 X138.751 Y134.429 E0.03818
G1 X137.853 Y135.112 E0.03818
G1 X136.887 Y135.693 E0.03818
G1 X135.863 Y136.167 E0.03818
G1 X134.795 Y136.527 E0.03818
G1 X133.693 Y136.769 E0.03818
G1 X132.572 Y136.891 E0.03818
G1 X131.444 Y136.891 E0.03818
G1 X130.323 Y136.769 E0.03818
G1 X129.221 Y136.527 E0.03818
G1 X128.152 Y136.167 E0.03818
G1 X127.129 Y135.693 E0.03818
G1 X126.162 Y135.112 E0.03818
G1 X125.264 Y134.429 E0.03818
G1 X124.446 Y133.654 E0.03818
G1 X123.716 Y132.794 E0.03818
G1 X123.083 Y131.860 E0.03818
G1 X122.554 Y130.864 E0.03818
G1 X122.137 Y129.816 E0.03818
G1 X122.061 Y129.542 E0.00964
G1 X121.835 Y128.730 E0.02854
G1 X121.653 Y127.617 E0.03818
G1 X121.592 Y126.490 E0.03818
G1 X121.653 Y125.364 E0.03818
G1 X121.835 Y124.251 E0.03818
G1 X122.137 Y123.164 E0.03818
G1 X122.554 Y122.117 E0.03818
G1 X122.688 Y121.865 E0.00964
G1 X123.083 Y121.120 E0.02854
G1 X123.716 Y120.187 E0.03818
G1 X124.446 Y119.327 E0.03818
G1 X125.264 Y118.551 E0.03818
G1 X126.162 Y117.869 E0.03818
G1 X127.129 Y117.287 E0.03818
G1 X128.152 Y116.814 E0.03818
G1 X129.221 Y116.454 E0.03818
G1 X130.323 Y116.211 E0.03818
G1 X131.444 Y116.089 E0.03818
G1 X132.572 Y116.089 E0.03818
G1 X133.633 Y116.205 E0.03615
M204 S1000
G1 X133.677 Y115.800 F10800.000
M204 S800
G1 F955
G1 X134.904 Y116.061 E0.04243
G1 X136.014 Y116.435 E0.03967
G1 X137.078 Y116.927 E0.03967
G1 X138.082 Y117.531 E0.03967
G1 X139.015 Y118.241 E0.03967
G1 X139.866 Y119.047 E0.03967
G1 X140.625 Y119.940 E0.03967
G1 X141.282 Y120.910 E0.03967
G1 X141.831 Y121.945 E0.03967
G1 X142.265 Y123.034 E0.03967
G1 X142.347 Y123.330 E0.01039
G1 X142.579 Y124.163 E0.02928
G1 X142.768 Y125.320 E0.03967
G1 X142.832 Y126.490 E0.03967
G1 X142.768 Y127.661 E0.03967
G1 X142.579 Y128.817 E0.03967
G1 X142.265 Y129.946 E0.03967
G1 X141.831 Y131.035 E0.03967
G1 X141.282 Y132.071 E0.03967
G1 X140.625 Y133.041 E0.03967
G1 X139.866 Y133.934 E0.03967
G1 X139.015 Y134.740 E0.03967
G1 X138.082 Y135.449 E0.03967
G1 X137.078 Y136.053 E0.03967
G1 X136.014 Y136.546 E0.03967
G1 X134.904 Y136.920 E0.03967
G1 X133.759 Y137.172 E0.03967
G1 X132.594 Y137.298 E0.03967
G1 X131.422 Y137.298 E0.03967
G1 X130.257 Y137.172 E0.03967
G1 X129.112 Y136.920 E0.03967
G1 X128.001 Y136.546 E0.03967
G1 X126.938 Y136.053 E0.03967
G1 X125.934 Y135.449 E0.03967
G1 X125.001 Y134.740 E0.03967
G1 X124.150 Y133.934 E0.03967
G1 X123.391 Y133.041 E0.03967
G1 X122.733 Y132.071 E0.03967
G1 X122.184 Y131.035 E0.03967
G1 X121.750 Y129.946 E0.03967
G1 X121.668 Y129.651 E0.01039
G1 X121.437 Y128.817 E0.02928
G1 X121.247 Y127.661 E0.03967
G1 X121.184 Y126.490 E0.03967
G1 X121.247 Y125.320 E0.03967
G1 X121.437 Y124.163 E0.03967
G1 X121.750 Y123.034 E0.03967
G1 X122.184 Y121.945 E0.03967
G1 X122.328 Y121.674 E0.01039
G1 X122.733 Y120.910 E0.02928
G1 X123.391 Y119.940 E0.03967
G1 X124.150 Y119.047 E0.03967
G1 X125.001 Y118.241 E0.03967
G1 X125.934 Y117.531 E0.03967
G1 X126.938 Y116.927 E0.03967
G1 X128.001 Y116.435 E0.03967
G1 X129.112 Y116.061 E0.03967
G1 X130.257 Y115.809 E0.03967
G1 X131.422 Y115.682 E0.03967
G1 X132.594 Y115.682 E0.03967
G1 X133.618 Y115.794 E0.03486
M204 S1000
G1 X133.821 Y116.174 F10800.000
G1 F8640.000
G1 X134.904 Y116.061 E-0.30325
G1 X136.014 Y116.435 E-0.27062
G1 X137.078 Y116.927 E-0.27062
G1 X138.082 Y117.531 E-0.27062
G1 X138.823 Y118.095 E-0.21490
G1 E-0.07000 F2100.00000
G1 Z1.400 F10800.000
G1 X128.768 Y116.929
G1 Z1.200
G1 E1.40000 F2100.00000
G1 F955
G1 X128.950 Y117.013 E0.00681
G1 X129.387 Y117.337 E0.01840
G1 X130.261 Y118.384 E0.04616
G1 X130.698 Y118.735 E0.01896
G1 X131.134 Y118.840 E0.01521
G1 X132.008 Y118.698 E0.02996
G1 X132.445 Y118.497 E0.01629
G1 X132.881 Y118.173 E0.01840
G1 X133.755 Y117.126 E0.04616
G1 X134.192 Y116.775 E0.01896
G1 X134.497 Y116.701 E0.01065
G1 X134.713 Y116.748 E0.00746
G1 X135.750 Y117.098 E0.03706
G1 X136.444 Y117.419 E0.02590
G1 X137.249 Y118.384 E0.04252
G1 X137.686 Y118.735 E0.01896
G1 X138.123 Y118.840 E0.01521
G1 X138.538 Y118.773 E0.01424
G1 F8640.000
G1 X138.123 Y118.840 E-0.09717
G1 X137.686 Y118.735 E-0.10377
G1 X137.249 Y118.384 E-0.12936
G1 X136.444 Y117.419 E-0.29006
G1 X135.750 Y117.098 E-0.17665
G1 X134.713 Y116.748 E-0.25278
G1 X134.497 Y116.701 E-0.05091
G1 X134.192 Y116.775 E-0.07262
G1 X133.755 Y117.126 E-0.12936
G1 X133.679 Y117.217 E-0.02731
G1 E-0.07000 F2100.00000
G1 Z1.400 F10800.000
G1 X137.539 Y134.945
G1 Z1.200
G1 E1.40000 F2100.00000
G1 F955
G1 X137.249 Y134.597 E0.01532
G1 X136.812 Y134.246 E0.01896
G1 X136.376 Y134.140 E0.01521
G1 X135.502 Y134.282 E0.02996
G1 X135.065 Y134.484 E0.01629
G1 X134.629 Y134.808 E0.01840
G1 X133.755 Y135.855 E0.04616
G1 X133.318 Y136.206 E0.01896
G1 X132.881 Y136.312 E0.01521
G1 X132.008 Y136.169 E0.02996
G1 X131.571 Y135.968 E0.01629
G1 X131.134 Y135.644 E0.01840
G1 X130.261 Y134.597 E0.04616
G1 X129.824 Y134.246 E0.01896
G1 X129.387 Y134.140 E0.01521
G1 X128.514 Y134.282 E0.02996
G1 X128.077 Y134.484 E0.01629
G1 X127.640 Y134.808 E0.01840
G1 X127.175 Y135.365 E0.02457
G1 X126.334 Y134.859 E0.03323
G1 X125.462 Y134.196 E0.03706
G1 X124.668 Y133.443 E0.03706
G1 X124.133 Y132.814 E0.02794
G1 X125.019 Y132.675 E0.03036
G1 X125.456 Y132.473 E0.01629
G1 X125.893 Y132.150 E0.01840
G1 X126.767 Y131.103 E0.04616
G1 X127.203 Y130.752 E0.01896
G1 X127.640 Y130.646 E0.01521
G1 X128.514 Y130.788 E0.02996
G1 X128.950 Y130.990 E0.01629
G1 X129.387 Y131.313 E0.01840
G1 X130.261 Y132.361 E0.04616
G1 X130.698 Y132.711 E0.01896
G1 X131.134 Y132.817 E0.01521
G1 X132.008 Y132.675 E0.02996
G1 X132.445 Y132.473 E0.01629
G1 X132.881 Y132.150 E0.01840
G1 X133.752 Y131.107 E0.04598
G1 X134.321 Y130.854 E0.02110
G1 X134.659 Y130.651 E0.01332
G1 X135.502 Y130.788 E0.02893
G1 X135.939 Y130.990 E0.01629
G1 X136.376 Y131.313 E0.01840
G1 X137.249 Y132.361 E0.04616
G1 X137.686 Y132.711 E0.01896
G1 X138.123 Y132.817 E0.01521
G1 X138.996 Y132.675 E0.02996
G1 X139.433 Y132.473 E0.01629
G1 X139.870 Y132.150 E0.01840
G1 X140.743 Y131.103 E0.04616
G1 X141.184 Y130.736 E0.01941
G1 X141.589 Y129.719 E0.03706
G1 X141.882 Y128.664 E0.03706
G1 X142.064 Y127.491 E0.04018
G1 X141.617 Y127.819 E0.01878
G1 X140.743 Y128.866 E0.04616
G1 X140.307 Y129.217 E0.01896
G1 X139.870 Y129.323 E0.01521
G1 X138.996 Y129.181 E0.02996
G1 X138.559 Y128.979 E0.01629
G1 X138.123 Y128.656 E0.01840
G1 X137.249 Y127.608 E0.04616
G1 X136.872 Y127.305 E0.01639
G1 X136.918 Y127.024 E0.00963
G1 X136.947 Y126.490 E0.01810
G1 X136.918 Y125.956 E0.01810
G1 X136.831 Y125.429 E0.01810
G1 X136.688 Y124.913 E0.01810
G1 X136.525 Y124.504 E0.01492
G1 X137.249 Y125.372 E0.03827
G1 X137.686 Y125.723 E0.01896
G1 X138.123 Y125.829 E0.01521
G1 X138.996 Y125.687 E0.02996
G1 X139.433 Y125.485 E0.01629
G1 X139.870 Y125.162 E0.01840
G1 X140.743 Y124.114 E0.04616
G1 X141.180 Y123.763 E0.01896
G1 X141.617 Y123.658 E0.01521
G1 X141.703 Y123.672 E0.00295
G1 X141.589 Y123.262 E0.01439
G1 X141.184 Y122.245 E0.03706
G1 X140.894 Y121.698 E0.02097
G1 X140.743 Y121.878 E0.00795
G1 X140.307 Y122.229 E0.01896
G1 X139.870 Y122.335 E0.01521
G1 X138.996 Y122.193 E0.02996
G1 X138.559 Y121.991 E0.01629
G1 X138.123 Y121.667 E0.01840
G1 X137.249 Y120.620 E0.04616
G1 X136.812 Y120.269 E0.01896
G1 X136.376 Y120.163 E0.01521
G1 X135.502 Y120.305 E0.02996
G1 X135.065 Y120.507 E0.01629
G1 X134.629 Y120.831 E0.01840
G1 X133.757 Y121.876 E0.04606
G1 X133.329 Y121.732 E0.01528
G1 X132.807 Y121.617 E0.01810
G1 X132.275 Y121.559 E0.01810
G1 X131.740 Y121.559 E0.01810
G1 X131.110 Y121.638 E0.02150
G1 X130.261 Y120.620 E0.04488
G1 X129.824 Y120.269 E0.01896
G1 X129.387 Y120.163 E0.01521
G1 X128.514 Y120.305 E0.02996
G1 X128.077 Y120.507 E0.01629
G1 X127.640 Y120.831 E0.01840
G1 X126.767 Y121.878 E0.04616
G1 X126.330 Y122.229 E0.01896
G1 X125.893 Y122.335 E0.01521
G1 X125.019 Y122.193 E0.02996
G1 X124.583 Y121.991 E0.01629
G1 X124.146 Y121.667 E0.01840
G1 X123.558 Y120.963 E0.03106
G1 X123.345 Y121.278 E0.01288
G1 X122.832 Y122.245 E0.03706
G1 X122.427 Y123.262 E0.03706
G1 X122.177 Y124.161 E0.03157
G1 X122.399 Y124.325 E0.00934
G1 X123.272 Y125.372 E0.04616
G1 X123.709 Y125.723 E0.01896
G1 X124.146 Y125.829 E0.01521
G1 X125.019 Y125.687 E0.02996
G1 X125.456 Y125.485 E0.01629
G1 X125.893 Y125.162 E0.01840
G1 X126.767 Y124.114 E0.04616
G1 X127.203 Y123.763 E0.01896
G1 X127.640 Y123.658 E0.01521
G1 X127.938 Y123.706 E0.01020
G1 X127.776 Y123.944 E0.00974
G1 X127.526 Y124.417 E0.01810
G1 X127.328 Y124.913 E0.01810
G1 X127.185 Y125.429 E0.01810
G1 X127.098 Y125.956 E0.01810
G1 X127.069 Y126.490 E0.01810
G1 X127.098 Y127.024 E0.01810
G1 X127.185 Y127.552 E0.01810
G1 X127.362 Y128.153 E0.02120
G1 X126.767 Y128.866 E0.03145
G1 X126.330 Y129.217 E0.01896
G1 X125.893 Y129.323 E0.01521
G1 X125.019 Y129.181 E0.02996
G1 X124.583 Y128.979 E0.01629
G1 X124.146 Y128.656 E0.01840
G1 X123.272 Y127.608 E0.04616
G1 X122.836 Y127.258 E0.01896
G1 X122.399 Y127.152 E0.01521
G1 X121.937 Y127.227 E0.01583
;BEFORE_LAYER_CHANGE
G92 E0.0
;1.4


G1 F8640.000
G1 X122.399 Y127.152 E-0.10797
G1 X122.836 Y127.258 E-0.10377
G1 X123.272 Y127.608 E-0.12936
G1 X124.146 Y128.656 E-0.31489
G1 X124.583 Y128.979 E-0.12550
G1 X125.019 Y129.181 E-0.11110
G1 X125.893 Y129.323 E-0.20436
G1 X126.330 Y129.217 E-0.10377
G1 X126.766 Y128.867 E-0.12928
G1 E-0.07000 F2100.00000
G1 Z1.400 F10800.000
;AFTER_LAYER_CHANGE
;1.4
G1 Z1.600
G1 X127.803 Y128.436
G1 Z1.400
G1 E1.40000 F2100.00000
M204 S800
G1 F1258
G1 X127.617 Y127.970 E0.01698
G1 X127.483 Y127.486 E0.01698
G1 X127.402 Y126.991 E0.01698
G1 X127.377 Y126.522 E0.01590
G1 X127.402 Y125.992 E0.01798
G1 X127.483 Y125.494 E0.01705
G1 X127.617 Y125.011 E0.01698
G1 X127.803 Y124.545 E0.01698
G1 X128.038 Y124.102 E0.01698
G1 X128.320 Y123.687 E0.01698
G1 X128.644 Y123.304 E0.01698
G1 X129.009 Y122.959 E0.01698
G1 X129.408 Y122.656 E0.01698
G1 X129.838 Y122.397 E0.01698
G1 X130.264 Y122.200 E0.01590
G1 X130.766 Y122.027 E0.01798
G1 X131.258 Y121.918 E0.01705
G1 X131.757 Y121.864 E0.01698
G1 X132.259 Y121.864 E0.01698
G1 X132.757 Y121.918 E0.01698
G1 X133.247 Y122.026 E0.01698
G1 X133.723 Y122.186 E0.01698
G1 X134.178 Y122.397 E0.01698
G1 X134.581 Y122.639 E0.01590
G1 X135.006 Y122.958 E0.01798
G1 X135.371 Y123.304 E0.01705
G1 X135.696 Y123.687 E0.01698
G1 X135.978 Y124.102 E0.01698
G1 X136.213 Y124.545 E0.01698
G1 X136.398 Y125.011 E0.01698
G1 X136.533 Y125.494 E0.01698
G1 X136.614 Y125.989 E0.01698
G1 X136.639 Y126.459 E0.01590
G1 X136.614 Y126.989 E0.01798
G1 X136.533 Y127.486 E0.01705
G1 X136.398 Y127.970 E0.01698
G1 X136.213 Y128.436 E0.01698
G1 X135.978 Y128.879 E0.01698
G1 X135.696 Y129.294 E0.01698
G1 X135.371 Y129.676 E0.01698
G1 X135.007 Y130.021 E0.01698
M73 Q4 S60
G1 X134.608 Y130.325 E0.01698
G1 X134.178 Y130.584 E0.01698
G1 X133.723 Y130.794 E0.01698
G1 X133.247 Y130.954 E0.01698
G1 X132.788 Y131.055 E0.01590
G1 X132.261 Y131.117 E0.01798
G1 X131.757 Y131.117 E0.01705
G1 X131.258 Y131.062 E0.01698
G1 X130.768 Y130.954 E0.01698
G1 X130.323 Y130.804 E0.01590
G1 X129.840 Y130.585 E0.01798
G1 X129.408 Y130.325 E0.01705
G1 X129.009 Y130.021 E0.01698
G1 X128.644 Y129.676 E0.01698
G1 X128.320 Y129.294 E0.01698
G1 X128.038 Y128.879 E0.01698
G1 X127.831 Y128.489 E0.01495
M204 S1000
G1 X128.191 Y128.298 F10800.000
M204 S800
G1 F1258
G1 X128.004 Y127.839 E0.01676
G1 X127.881 Y127.399 E0.01549
G1 X127.807 Y126.947 E0.01549
G1 X127.784 Y126.521 E0.01446
G1 X127.807 Y126.034 E0.01648
G1 X127.881 Y125.582 E0.01551
G1 X128.004 Y125.141 E0.01549
G1 X128.173 Y124.716 E0.01549
G1 X128.387 Y124.312 E0.01549
G1 X128.644 Y123.933 E0.01549
G1 X128.940 Y123.585 E0.01549
G1 X129.272 Y123.270 E0.01549
G1 X129.637 Y122.993 E0.01549
G1 X130.029 Y122.757 E0.01549
G1 X130.416 Y122.578 E0.01446
G1 X130.877 Y122.419 E0.01648
G1 X131.324 Y122.321 E0.01551
G1 X131.779 Y122.271 E0.01549
G1 X132.237 Y122.271 E0.01549
G1 X132.691 Y122.321 E0.01549
G1 X133.138 Y122.419 E0.01549
G1 X133.572 Y122.565 E0.01549
G1 X133.987 Y122.757 E0.01549
G1 X134.353 Y122.977 E0.01446
M73 P4 R60
G1 X134.743 Y123.269 E0.01648
G1 X135.075 Y123.585 E0.01551
G1 X135.372 Y123.933 E0.01549
G1 X135.628 Y124.312 E0.01549
G1 X135.843 Y124.716 E0.01549
G1 X136.012 Y125.141 E0.01549
G1 X136.134 Y125.582 E0.01549
G1 X136.208 Y126.033 E0.01549
G1 X136.232 Y126.460 E0.01446
G1 X136.209 Y126.946 E0.01648
G1 X136.134 Y127.399 E0.01551
G1 X136.012 Y127.839 E0.01549
G1 X135.843 Y128.265 E0.01549
G1 X135.628 Y128.669 E0.01549
G1 X135.372 Y129.047 E0.01549
G1 X135.075 Y129.396 E0.01549
G1 X134.743 Y129.711 E0.01549
G1 X134.379 Y129.988 E0.01549
G1 X133.987 Y130.223 E0.01549
G1 X133.572 Y130.416 E0.01549
G1 X133.138 Y130.562 E0.01549
G1 X132.721 Y130.653 E0.01446
G1 X132.237 Y130.709 E0.01648
G1 X131.779 Y130.709 E0.01551
G1 X131.324 Y130.660 E0.01549
G1 X130.877 Y130.562 E0.01549
G1 X130.473 Y130.425 E0.01446
G1 X130.029 Y130.224 E0.01648
